Paskul/trajectory_caching_pascal/refined_map.csv
id,segment,shoulder_pan_joint,shoulder_lift_joint,elbow_joint,wrist_1_joint,wrist_2_joint,wrist_3_joint,time_from_start_s,score
0,approach,1.5400809756241274,-1.6199397577352357,1.3999678228092844,-1.199945876570465,-1.6000818166478072,-0.10990594776300713,0.0,0.5372406581210418
0,approach,1.5410893697719121,-1.6199472373001313,1.4001422652739504,-1.1983567085433442,-1.5995287228094783,-0.10740594776300713,0.1,0.5372406581210418
0,approach,1.5441145522152662,-1.6199696759948186,1.4006655926679483,-1.1935892044619822,-1.5978694412944914,-0.09990594776300714,0.2,0.5372406581210418
0,approach,1.54915652295419,-1.620007073819297,1.4015378049912783,-1.1856433643263788,-1.5951039721028468,-0.08740594776300711,0.30000000000000004,0.5372406581210418
0,approach,1.5562152819886832,-1.6200594307735672,1.4027589022439402,-1.174519188136534,-1.5912323152345442,-0.06990594776300708,0.4,0.5372406581210418
0,approach,1.5652908293187457,-1.6201267468576288,1.4043288844259343,-1.1602166758924481,-1.586254470689584,-0.04740594776300716,0.5,0.5372406581210418
0,approach,1.5763831649443778,-1.6202090220714815,1.40624775153726,-1.1427358275941206,-1.5801704384679658,-0.01990594776300738,0.6000000000000001,0.5372406581210418
0,approach,1.5889741305464642,-1.6203024130778927,1.4084258671847751,-1.1228932293309626,-1.5732644230885386,0.01130943966696401,0.7000000000000001,0.5372406581210418
0,approach,1.601645985132878,-1.6203964040624066,1.4106179758466502,-1.1029231549336742,-1.5663140409315788,0.04272536620286178,0.8,0.5372406581210418
0,approach,1.6143178397192919,-1.6204903950469203,1.4128100845085252,-1.082953080536386,-1.5593636587746191,0.07414129273875952,0.9,0.5372406581210418
0,approach,1.6269896943057056,-1.620584386031434,1.4150021931704004,-1.0629830061390977,-1.5524132766176593,0.10555721927465729,1.0,0.5372406581210418
0,approach,1.6396615488921207,-1.6206783770159479,1.4171943018322757,-1.043012931741807,-1.5454628944606987,0.13697314581055858,1.1,0.5372406581210418
0,approach,1.652333403478536,-1.6207723680004618,1.419386410494151,-1.0230428573445165,-1.5385125123037382,0.16838907234645986,1.2,0.5372406581210418
0,approach,1.665005258064951,-1.6208663589849754,1.4215785191560262,-1.003072782947226,-1.5315621301467774,0.1998049988823611,1.3,0.5372406581210418
0,approach,1.6776771126513663,-1.6209603499694893,1.4237706278179014,-0.9831027085499354,-1.524611747989817,0.2312209254182624,1.4,0.5372406581210418
0,approach,1.6903489672377816,-1.6210543409540032,1.425962736479777,-0.9631326341526449,-1.5176613658328564,0.26263685195416364,1.5,0.5372406581210418
0,approach,1.7030208218241967,-1.621148331938517,1.4281548451416521,-0.9431625597553545,-1.5107109836758956,0.2940527784900649,1.6,0.5372406581210418
0,approach,1.715692676410612,-1.6212423229230308,1.4303469538035274,-0.9231924853580639,-1.503760601518935,0.3254687050259662,1.7000000000000002,0.5372406581210418
0,approach,1.7283645309970272,-1.6213363139075447,1.4325390624654026,-0.9032224109607734,-1.4968102193619746,0.35688463156186734,1.8,0.5372406581210418
0,approach,1.7410363855834423,-1.6214303048920584,1.4347311711272779,-0.8832523365634828,-1.4898598372050138,0.3883005580977687,1.9,0.5372406581210418
0,approach,1.7537082401698574,-1.6215242958765723,1.4369232797891534,-0.8632822621661923,-1.4829094550480533,0.41971648463366995,2.0,0.5372406581210418
0,approach,1.7663800947562727,-1.621618286861086,1.4391153884510284,-0.8433121877689018,-1.4759590728910927,0.45113241116957103,2.1,0.5372406581210418
0,approach,1.7790519493426877,-1.6217122778456,1.4413074971129036,-0.8233421133716112,-1.4690086907341322,0.4825483377054723,2.2,0.5372406581210418
0,approach,1.791723803929103,-1.6218062688301138,1.443499605774779,-0.8033720389743207,-1.4620583085771717,0.5139642642413736,2.3,0.5372406581210418
0,approach,1.8043956585155183,-1.6219002598146277,1.4456917144366543,-0.7834019645770303,-1.4551079264202111,0.545380190777275,2.4,0.5372406581210418
0,approach,1.8170675131019334,-1.6219942507991414,1.4478838230985296,-0.7634318901797397,-1.4481575442632506,0.5767961173131761,2.5,0.5372406581210418
0,approach,1.8297393676883487,-1.622088241783655,1.4500759317604048,-0.7434618157824492,-1.4412071621062899,0.6082120438490773,2.6,0.5372406581210418
0,approach,1.842411222274764,-1.622182232768169,1.45226804042228,-0.7234917413851586,-1.4342567799493293,0.6396279703849788,2.7,0.5372406581210418
0,approach,1.8550830768611792,-1.6222762237526827,1.4544601490841553,-0.7035216669878681,-1.4273063977923688,0.6710438969208801,2.8,0.5372406581210418
0,approach,1.8677549314475943,-1.6223702147371966,1.4566522577460308,-0.6835515925905776,-1.4203560156354083,0.7024598234567812,2.9,0.5372406581210418
0,approach,1.8804267860340094,-1.6224642057217105,1.458844366407906,-0.6635815181932871,-1.4134056334784477,0.7338757499926823,3.0,0.5372406581210418
0,approach,1.8930986406204244,-1.6225581967062241,1.461036475069781,-0.6436114437959964,-1.406455251321487,0.7652916765285837,3.1,0.5372406581210418
0,approach,1.9057704952068397,-1.622652187690738,1.4632285837316565,-0.623641369398706,-1.3995048691645264,0.796707603064485,3.2,0.5372406581210418
0,approach,1.918442349793255,-1.622746178675252,1.4654206923935318,-0.6036712950014154,-1.392554487007566,0.8281235296003864,3.3,0.5372406581210418
0,approach,1.93111420437967,-1.6228401696597656,1.467612801055407,-0.5837012206041249,-1.3856041048506054,0.8595394561362876,3.4,0.5372406581210418
0,approach,1.9437860589660854,-1.6229341606442795,1.4698049097172823,-0.5637311462068344,-1.3786537226936448,0.8909553826721887,3.5,0.5372406581210418
0,approach,1.9564579135525006,-1.6230281516287932,1.4719970183791578,-0.5437610718095438,-1.3717033405366843,0.9223713092080901,3.6,0.5372406581210418
0,approach,1.9691297681389157,-1.6231221426133071,1.474189127041033,-0.5237909974122532,-1.3647529583797235,0.9537872357439914,3.7,0.5372406581210418
0,approach,1.9818016227253308,-1.623216133597821,1.4763812357029082,-0.5038209230149627,-1.357802576222763,0.9852031622798926,3.8,0.5372406581210418
0,approach,1.994473477311746,-1.6233101245823347,1.4785733443647835,-0.4838508486176722,-1.3508521940658025,1.016619088815794,3.9,0.5372406581210418
0,approach,2.0071453318981614,-1.6234041155668484,1.4807654530266587,-0.46388077422038165,-1.3439018119088417,1.048035015351695,4.0,0.5372406581210418
0,approach,2.019817186484571,-1.6234981065513625,1.4829575616885333,-0.4439106998230999,-1.3369514297518845,1.0794509418875826,4.1,0.5372406581210418
0,approach,2.0324890410709804,-1.6235920975358762,1.4851496703504075,-0.4239406254258184,-1.3300010475949269,1.1108668684234697,4.2,0.5372406581210418
0,approach,2.04516089565739,-1.6236860885203899,1.4873417790122818,-0.4039705510285367,-1.3230506654379695,1.142282794959357,4.3,0.5372406581210418
0,approach,2.0578327502438,-1.6237800795049036,1.4895338876741562,-0.38400047663125486,-1.3161002832810118,1.1736987214952446,4.4,0.5372406581210418
0,approach,2.070504604830209,-1.6238740704894175,1.4917259963360305,-0.3640304022339733,-1.3091499011240542,1.2051146480311317,4.5,0.5372406581210418
0,approach,2.0831764594166193,-1.6239680614739311,1.493918104997905,-0.3440603278366914,-1.3021995189670967,1.2365305745670194,4.6,0.5372406581210418
0,approach,2.0958483140030286,-1.624062052458445,1.4961102136597793,-0.3240902534394098,-1.2952491368101393,1.2679465011029067,4.7,0.5372406581210418
0,approach,2.1085201685894384,-1.6241560434429587,1.4983023223216534,-0.30412017904212796,-1.2882987546531817,1.299362427638794,4.8,0.5372406581210418
0,approach,2.1211920231758477,-1.6242500344274726,1.5004944309835277,-0.28415010464484636,-1.2813483724962242,1.3307783541746814,4.9,0.5372406581210418
0,approach,2.1338638777622574,-1.6243440254119863,1.502686539645402,-0.2641800302475647,-1.2743979903392668,1.3621942807105687,5.0,0.5372406581210418
0,approach,2.146535732348667,-1.6244380163965,1.5048786483072765,-0.244209955850283,-1.2674476081823092,1.393610207246456,5.1,0.5372406581210418
0,approach,2.1592075869350764,-1.6245320073810139,1.5070707569691508,-0.2242398814530014,-1.2604972260253517,1.4250261337823433,5.2,0.5372406581210418
0,approach,2.1718794415214857,-1.6246259983655276,1.509262865631025,-0.20426980705571957,-1.2535468438683943,1.4564420603182306,5.3,0.5372406581210418
0,approach,2.184551296107901,-1.6247199893500415,1.5114549742929004,-0.1842997326584286,-1.2465964617114336,1.4878579868541326,5.4,0.5372406581210418
0,approach,2.197223150694318,-1.6248139803345554,1.513647082954776,-0.16432965826113602,-1.2396460795544724,1.5192739133900373,5.5,0.5372406581210418
0,approach,2.2098950052807345,-1.6249079713190693,1.5158391916166516,-0.14435958386384332,-1.232695697397511,1.550689839925942,5.6,0.5372406581210418
0,approach,2.222566859867151,-1.6250019623035827,1.5180313002785268,-0.12438950946655063,-1.2257453152405495,1.5821057664618463,5.7,0.5372406581210418
0,approach,2.2352387144535677,-1.6250959532880969,1.5202234089404025,-0.10441943506925774,-1.218794933083588,1.6135216929977514,5.8,0.5372406581210418
0,approach,2.2479105690399845,-1.6251899442726105,1.522415517602278,-0.08444936067196504,-1.2118445509266267,1.644937619533656,5.9,0.5372406581210418
0,approach,2.260582423626401,-1.6252839352571244,1.5246076262641537,-0.06447928627467235,-1.2048941687696655,1.6763535460695607,6.0,0.5372406581210418
0,approach,2.273254278212818,-1.6253779262416381,1.5267997349260292,-0.04450921187737945,-1.197943786612704,1.7077694726054655,6.1,0.5372406581210418
0,approach,2.285926132799234,-1.625471917226152,1.5289918435879046,-0.024539137480086765,-1.1909934044557426,1.7391853991413704,6.2,0.5372406581210418
0,approach,2.298597987385651,-1.625565908210666,1.5311839522497803,-0.00456906308279391,-1.1840430222987812,1.7706013256772752,6.3,0.5372406581210418
0,approach,2.3112698419720674,-1.6256598991951796,1.5333760609116558,0.015401011314498786,-1.17709264014182,1.8020172522131799,6.4,0.5372406581210418
0,approach,2.323941696558484,-1.6257538901796935,1.5355681695735313,0.03537108571179149,-1.1701422579848586,1.8334331787490845,6.5,0.5372406581210418
0,approach,2.3366135511449007,-1.6258478811642074,1.537760278235407,0.0553411601090844,-1.1631918758278974,1.8648491052849896,6.6,0.5372406581210418
0,approach,2.3492854057313175,-1.625941872148721,1.5399523868972824,0.07531123450637711,-1.156241493670936,1.8962650318208942,6.7,0.5372406581210418
0,approach,2.361957260317734,-1.626035863133235,1.542144495559158,0.09528130890366979,-1.1492911115139746,1.9276809583567986,6.8,0.5372406581210418
0,approach,2.3746291149041503,-1.626129854117749,1.5443366042210334,0.11525138330096249,-1.1423407293570134,1.9590968848927035,6.9,0.5372406581210418
0,approach,2.3873009694905667,-1.6262238451022626,1.546528712882909,0.13522145769825522,-1.135390347200052,1.9905128114286081,7.0,0.5372406581210418
0,approach,2.3999728240769835,-1.6263178360867765,1.5487208215447845,0.15519153209554812,-1.1284399650430905,2.021928737964513,7.1,0.5372406581210418
0,approach,2.4126446786634,-1.6264118270712904,1.55091293020666,0.17516160649284088,-1.1214895828861293,2.053344664500418,7.2,0.5372406581210418
0,approach,2.4253165332498163,-1.626505818055804,1.5531050388685355,0.19513168089013352,-1.114539200729168,2.0847605910363223,7.3,0.5372406581210418
0,approach,2.437988387836233,-1.626599809040318,1.555297147530411,0.21510175528742626,-1.1075888185722067,2.116176517572227,7.4,0.5372406581210418
0,approach,2.45066024242265,-1.6266938000248319,1.5574892561922866,0.23507182968471893,-1.1006384364152453,2.147592444108132,7.5,0.5372406581210418
0,approach,2.4633320970090664,-1.6267877910093456,1.559681364854162,0.2550419040820118,-1.0936880542582839,2.179008370644037,7.6,0.5372406581210418
0,approach,2.4760039515954833,-1.6268817819938595,1.5618734735160376,0.27501197847930453,-1.0867376721013224,2.2104242971799417,7.7,0.5372406581210418
0,approach,2.4886758061818997,-1.6269757729783731,1.564065582177913,0.2949820528765974,-1.0797872899443612,2.2418402237158466,7.8,0.5372406581210418
0,approach,2.5013476607683165,-1.6270697639628868,1.5662576908397887,0.31495212727389016,-1.0728369077873998,2.273256150251751,7.9,0.5372406581210418
0,approach,2.514019515354733,-1.627163754947401,1.5684497995016642,0.33492220167118275,-1.0658865256304386,2.304672076787656,8.0,0.5372406581210418
0,approach,2.526691369941138,-1.6272577459319146,1.5706419081635377,0.35489227606845763,-1.0589361434734834,2.3360880033235323,8.1,0.5372406581210418
0,approach,2.5393632245275435,-1.6273517369164283,1.5728340168254111,0.374862350465733,-1.051985761316528,2.3675039298594096,8.2,0.5372406581210418
0,approach,2.5520350791139492,-1.6274457279009422,1.5750261254872848,0.39483242486300796,-1.045035379159573,2.3989198563952865,8.3,0.5372406581210418
0,approach,2.5647069337003545,-1.627539718885456,1.5772182341491585,0.41480249926028273,-1.0380849970026178,2.430335782931163,8.4,0.5372406581210418
0,approach,2.57737878828676,-1.6276337098699696,1.579410342811032,0.43477257365755784,-1.0311346148456626,2.4617517094670402,8.5,0.5372406581210418
0,approach,2.590050642873165,-1.6277277008544833,1.5816024514729057,0.4547426480548328,-1.0241842326887074,2.4931676360029167,8.6,0.5372406581210418
0,approach,2.6027224974595704,-1.6278216918389972,1.5837945601347792,0.47471272245210816,-1.017233850531752,2.5245835625387945,8.7,0.5372406581210418
0,approach,2.6153943520459757,-1.6279156828235108,1.5859866687966528,0.4946827968493831,-1.010283468374797,2.5559994890746713,8.8,0.5372406581210418
0,approach,2.628066206632381,-1.6280096738080245,1.5881787774585263,0.514652871246658,-1.0033330862178418,2.5874154156105478,8.9,0.5372406581210418
0,approach,2.6407380612187863,-1.6281036647925382,1.5903708861204,0.534622945643933,-0.9963827040608866,2.6188313421464247,9.0,0.5372406581210418
0,approach,2.6534099158051916,-1.628197655777052,1.5925629947822735,0.554593020041208,-0.9894323219039315,2.650247268682301,9.1,0.5372406581210418
0,approach,2.6660817703915973,-1.6282916467615658,1.5947551034441472,0.5745630944384834,-0.9824819397469762,2.6816631952181784,9.2,0.5372406581210418
0,approach,2.6786508742991937,-1.6283698828187647,1.5969185617349708,0.5947481392723732,-0.9755579772767842,2.7130791229736393,9.3,0.5372406581210418
0,approach,2.6897199245838284,-1.6282181140965564,1.5986637548704357,0.6180715084376834,-0.969019716625731,2.744495053885479,9.4,0.5372406581210418
0,approach,2.698628777195646,-1.627735547151308,1.5998069224264613,0.6459035791875355,-0.9630377504687008,2.7759037320798656,9.5,0.5372406581210418
0,approach,2.7046873003716496,-1.6269160450554598,1.6002279398158816,0.6771823371857558,-0.9579885762016115,2.805611487088508,9.6,0.5372406581210418
0,approach,2.7075752658078116,-1.6258688076510979,1.5999523451130342,0.7085982704037501,-0.9542706317979842,2.830928662327994,9.7,0.5372406581210418
0,approach,2.707869008462081,-1.6246396969203627,1.599110005240454,0.7400142016079251,-0.9516508457259015,2.852577502548073,9.8,0.5372406581210418
0,approach,2.7059449765406787,-1.6232551045173393,1.5977831606913373,0.771430131644721,-0.9499698639579656,2.8710903209792322,9.9,0.5372406581210418
0,approach,2.702045541016395,-1.6217320223469986,1.5960247608726201,0.8028460609741417,-0.94912508861362,2.88680984007771,10.0,0.5372406581210418
0,approach,2.6963570521532287,-1.62008351488944,1.5938755166801255,0.8342619894547549,-0.949037635937209,2.8999995663944667,10.1,0.5372406581210418
0,approach,2.6900847675892283,-1.6183940792923035,1.5915987339877702,0.8656779159906591,-0.9491973094616075,2.9123637811770093,10.2,0.5372406581210418
0,approach,2.683812483025228,-1.616704643695167,1.5893219512954146,0.8970938425265628,-0.949356982986006,2.9247279959595516,10.3,0.5372406581210418
0,approach,2.6775401984612284,-1.615015208098031,1.5870451686030598,0.9285097690624621,-0.9495166565104045,2.937092210742092,10.4,0.5372406581210418
0,approach,2.6712679138972315,-1.6133257725008951,1.5847683859107053,0.9599256955983505,-0.9496763300348029,2.9494564255246285,10.5,0.5372406581210418
0,approach,2.6649956293332338,-1.6116363369037594,1.5824916032183511,0.9913416221342395,-0.9498360035592013,2.961820640307165,10.6,0.5372406581210418
0,approach,2.6587233447692364,-1.6099469013066239,1.580214820525997,1.022757548670128,-0.9499956770835998,2.9741848550897014,10.7,0.5372406581210418
0,approach,2.652451060205239,-1.6082574657094881,1.5779380378336425,1.0541734752060172,-0.9501553506079982,2.9865490698722383,10.8,0.5372406581210418
0,approach,2.646178775641242,-1.6065680301123526,1.5756612551412883,1.0855894017419057,-0.9503150241323965,2.9989132846547744,10.9,0.5372406581210418
0,approach,2.639906491077245,-1.6048785945152169,1.573384472448934,1.117005328277794,-0.950474697656795,3.011277499437311,11.0,0.5372406581210418
0,approach,2.633634206513247,-1.6031891589180811,1.5711076897565797,1.1484212548136832,-0.9506343711811934,3.0236417142198473,11.1,0.5372406581210418
0,approach,2.62736192194925,-1.6014997233209456,1.5688309070642255,1.1798371813495716,-0.9507940447055918,3.0360059290023833,11.2,0.5372406581210418
0,approach,2.621089637385253,-1.59981028772381,1.5665541243718712,1.2112531078854607,-0.9509537182299903,3.04837014378492,11.3,0.5372406581210418
0,approach,2.6148173528212557,-1.5981208521266743,1.5642773416795168,1.2426690344213491,-0.9511133917543887,3.0607343585674562,11.4,0.5372406581210418
0,approach,2.6085450682572584,-1.5964314165295388,1.5620005589871626,1.2740849609572373,-0.9512730652787871,3.0730985733499927,11.5,0.5372406581210418
0,approach,2.602272783693261,-1.5947419809324033,1.5597237762948084,1.3055008874931266,-0.9514327388031856,3.085462788132529,11.6,0.5372406581210418
0,approach,2.596000499129264,-1.5930525453352675,1.5574469936024542,1.336916814029015,-0.951592412327584,3.097827002915065,11.7,0.5372406581210418
0,approach,2.5897282145652665,-1.5913631097381318,1.5551702109100998,1.3683327405649042,-0.9517520858519823,3.110191217697602,11.8,0.5372406581210418
0,approach,2.583455930001269,-1.5896736741409963,1.5528934282177456,1.3997486671007924,-0.9519117593763807,3.122555432480138,11.9,0.5372406581210418
0,approach,2.5771836454372714,-1.5879842385438605,1.5506166455253911,1.4311645936366815,-0.9520714329007791,3.1349196472626746,12.0,0.5372406581210418
0,approach,2.5709113608732745,-1.586294802946725,1.548339862833037,1.4625805201725708,-0.9522311064251776,3.1472838620452115,12.1,0.5372406581210418
0,approach,2.564639076309277,-1.5846053673495895,1.5460630801406827,1.4939964467084592,-0.952390779949576,3.159648076827748,12.2,0.5372406581210418
0,approach,2.55836679174528,-1.5829159317524537,1.5437862974483285,1.5254123732443474,-0.9525504534739744,3.172012291610284,12.3,0.5372406581210418
0,approach,2.552094507181282,-1.581226496155318,1.541509514755974,1.5568282997802365,-0.9527101269983728,3.1843765063928204,12.4,0.5372406581210418
0,approach,2.545822222617285,-1.5795370605581824,1.5392327320636199,1.588244226316125,-0.9528698005227713,3.196740721175357,12.5,0.5372406581210418
0,approach,2.5395499380532875,-1.5778476249610467,1.5369559493712657,1.6196601528520143,-0.9530294740471696,3.209104935957894,12.6,0.5372406581210418
0,approach,2.5332776534892902,-1.5761581893639114,1.5346791666789115,1.6510760793879025,-0.9531891475715681,3.2214691507404294,12.7,0.5372406581210418
0,approach,2.5270053689252934,-1.5744687537667756,1.5324023839865573,1.6824920059237907,-0.9533488210959665,3.233833365522966,12.8,0.5372406581210418
0,approach,2.5207330843612956,-1.57277931816964,1.5301256012942028,1.71390793245968,-0.9535084946203649,3.2461975803055023,12.9,0.5372406581210418
0,approach,2.5144607997972983,-1.5710898825725041,1.5278488186018486,1.7453238589955682,-0.9536681681447633,3.258561795088039,13.0,0.5372406581210418
0,approach,2.508188515233301,-1.5694004469753686,1.5255720359094944,1.7767397855314573,-0.9538278416691618,3.2709260098705757,13.1,0.5372406581210418
0,approach,2.5019162306693037,-1.567711011378233,1.52329525321714,1.8081557120673464,-0.9539875151935602,3.283290224653112,13.2,0.5372406581210418
0,approach,2.495643946105307,-1.5660215757810976,1.521018470524786,1.8395716386032348,-0.9541471887179587,3.2956544394356486,13.3,0.5372406581210418
0,approach,2.489371661541309,-1.5643321401839618,1.5187416878324316,1.870987565139123,-0.9543068622423571,3.308018654218184,13.4,0.5372406581210418
0,approach,2.4830993769773118,-1.562642704586826,1.5164649051400771,1.9024034916750114,-0.9544665357667554,3.3203828690007207,13.5,0.5372406581210418
0,approach,2.4768270924133144,-1.5609532689896906,1.514188122447723,1.9338194182109005,-0.9546262092911539,3.3327470837832576,13.6,0.5372406581210418
0,approach,2.470554807849317,-1.5592638333925548,1.5119113397553687,1.9652353447467896,-0.9547858828155524,3.3451112985657936,13.7,0.5372406581210418
0,approach,2.4642825232853203,-1.5575743977954193,1.5096345570630143,1.9966512712826783,-0.9549455563399508,3.35747551334833,13.8,0.5372406581210418
0,approach,2.458010238721323,-1.5558849621982838,1.50735777437066,2.0280671978185665,-0.9551052298643492,3.369839728130866,13.9,0.5372406581210418
0,approach,2.4517379541573256,-1.554195526601148,1.505080991678306,2.059483124354455,-0.9552649033887476,3.3822039429134025,14.0,0.5372406581210418
0,approach,2.445465669593328,-1.5525060910040125,1.5028042089859517,2.0908990508903442,-0.955424576913146,3.3945681576959394,14.1,0.5372406581210418
0,approach,2.4391933850293306,-1.5508166554068767,1.5005274262935973,2.1223149774262335,-0.9555842504375445,3.406932372478476,14.2,0.5372406581210418
0,approach,2.4329211004653337,-1.549127219809741,1.498250643601243,2.153730903962122,-0.9557439239619429,3.419296587261012,14.3,0.5372406581210418
0,approach,2.426648815901336,-1.5474377842126055,1.4959738609088886,2.185146830498011,-0.9559035974863413,3.431660802043549,14.4,0.5372406581210418
0,approach,2.4203765313373387,-1.5457483486154697,1.4936970782165344,2.2165627570338993,-0.9560632710107397,3.444025016826085,14.5,0.5372406581210418
0,approach,2.414104246773342,-1.5440589130183342,1.4914202955241802,2.2479786835697886,-0.9562229445351382,3.4563892316086218,14.6,0.5372406581210418
0,approach,2.4078319622093445,-1.5423694774211985,1.4891435128318258,2.2793946101056766,-0.9563826180595365,3.468753446391158,14.7,0.5372406581210418
0,approach,2.401559677645347,-1.540680041824063,1.4868667301394716,2.3108105366415654,-0.956542291583935,3.4811176611736943,14.8,0.5372406581210418
0,approach,2.39528739308135,-1.5389906062269272,1.4845899474471174,2.3422264631774543,-0.9567019651083335,3.493481875956231,14.9,0.5372406581210418
0,approach,2.3890151085173525,-1.5373011706297917,1.4823131647547632,2.3736423897133427,-0.9568616386327319,3.505846090738767,15.0,0.5372406581210418
0,approach,2.3827428239533552,-1.535611735032656,1.4800363820624087,2.405058316249232,-0.9570213121571303,3.5182103055213036,15.1,0.5372406581210418
0,approach,2.376470539389358,-1.5339222994355204,1.4777595993700545,2.43647424278512,-0.9571809856815288,3.5305745203038397,15.2,0.5372406581210418
0,approach,2.3701982548253606,-1.5322328638383844,1.4754828166777,2.4678901693210094,-0.9573406592059271,3.5429387350863766,15.3,0.5372406581210418
0,approach,2.3639259702613633,-1.530543428241249,1.4732060339853459,2.4993060958568973,-0.9575003327303255,3.5553029498689126,15.4,0.5372406581210418
0,approach,2.357653685697366,-1.5288539926441134,1.4709292512929917,2.5307220223927867,-0.957660006254724,3.567667164651449,15.5,0.5372406581210418
0,approach,2.3513814011333687,-1.5271645570469776,1.4686524686006375,2.562137948928675,-0.9578196797791224,3.5800313794339855,15.6,0.5372406581210418
0,approach,2.3451091165693714,-1.525475121449842,1.466375685908283,2.5935538754645644,-0.9579793533035209,3.592395594216522,15.7,0.5372406581210418
0,approach,2.338836832005374,-1.5237856858527064,1.4640989032159288,2.6249698020004524,-0.9581390268279192,3.604759808999058,15.8,0.5372406581210418
0,approach,2.3325645474413768,-1.5220962502555708,1.4618221205235746,2.656385728536341,-0.9582987003523176,3.6171240237815945,15.9,0.5372406581210418
0,approach,2.3262922628773794,-1.520406814658435,1.4595453378312202,2.68780165507223,-0.9584583738767161,3.629488238564131,16.0,0.5372406581210418
0,approach,2.320019978313371,-1.5187173790612964,1.457268555138862,2.719217581608174,-0.9586180474011148,3.641852453346689,16.1,0.5372406581210418
0,approach,2.3137476937493626,-1.517027943464158,1.4549917724465038,2.750633508144118,-0.9587777209255135,3.6542166681292474,16.2,0.5372406581210418
0,approach,2.307475409185354,-1.5153385078670192,1.4527149897541454,2.782049434680063,-0.9589373944499122,3.6665808829118056,16.3,0.5372406581210418
0,approach,2.301203124621346,-1.5136490722698805,1.450438207061787,2.813465361216008,-0.9590970679743109,3.6789450976943643,16.4,0.5372406581210418
0,approach,2.2949308400573374,-1.511959636672742,1.4481614243694285,2.8448812877519516,-0.9592567414987095,3.691309312476922,16.5,0.5372406581210418
0,approach,2.288658555493329,-1.5102702010756035,1.4458846416770703,2.876297214287896,-0.9594164150231083,3.7036735272594803,16.6,0.5372406581210418
0,approach,2.282386270929321,-1.5085807654784649,1.4436078589847121,2.9077131408238404,-0.959576088547507,3.716037742042039,16.7,0.5372406581210418
0,approach,2.276113986365312,-1.506891329881326,1.4413310762923537,2.9391290673597847,-0.9597357620719057,3.728401956824597,16.8,0.5372406581210418
0,approach,2.2698417018013037,-1.5052018942841876,1.4390542935999955,2.9705449938957296,-0.9598954355963044,3.7407661716071554,16.9,0.5372406581210418
0,approach,2.2635694172372958,-1.503512458687049,1.4367775109076373,3.001960920431674,-0.9600551091207031,3.753130386389714,17.0,0.5372406581210418
0,approach,2.257297132673287,-1.5018230230899103,1.4345007282152789,3.033376846967619,-0.9602147826451018,3.7654946011722723,17.1,0.5372406581210418
0,approach,2.2510248481092785,-1.5001335874927717,1.4322239455229206,3.064792773503562,-0.9603744561695005,3.7778588159548305,17.2,0.5372406581210418
0,approach,2.24475256354527,-1.498444151895633,1.429947162830562,3.0962087000395067,-0.9605341296938993,3.790223030737389,17.3,0.5372406581210418
0,approach,2.2384802789812617,-1.4967547162984944,1.4276703801382038,3.1276246265754524,-0.9606938032182979,3.8025872455199474,17.4,0.5372406581210418
0,approach,2.2322079944172537,-1.4950652807013558,1.4253935974458454,3.1590405531113963,-0.9608534767426965,3.8149514603025056,17.5,0.5372406581210418
0,approach,2.225935709853245,-1.4933758451042172,1.4231168147534872,3.1904564796473416,-0.9610131502670953,3.8273156750850643,17.6,0.5372406581210418
0,approach,2.2196634252892364,-1.4916864095070785,1.420840032061129,3.221872406183285,-0.961172823791494,3.8396798898676225,17.7,0.5372406581210418
0,approach,2.213391140725228,-1.48999697390994,1.4185632493687705,3.25328833271923,-0.9613324973158927,3.8520441046501808,17.8,0.5372406581210418
0,approach,2.2071188561612196,-1.4883075383128013,1.4162864666764123,3.2847042592551743,-0.9614921708402914,3.864408319432739,17.9,0.5372406581210418
0,approach,2.200846571597211,-1.4866181027156626,1.414009683984054,3.3161201857911182,-0.9616518443646901,3.876772534215297,18.0,0.5372406581210418
0,approach,2.194574287033203,-1.4849286671185242,1.4117329012916957,3.3475361123270635,-0.9618115178890889,3.8891367489978563,18.1,0.5372406581210418
0,approach,2.1883020024691944,-1.4832392315213854,1.4094561185993375,3.378952038863007,-0.9619711914134876,3.901500963780414,18.2,0.5372406581210418
0,approach,2.1820297179051855,-1.4815497959242467,1.407179335906979,3.410367965398952,-0.9621308649378862,3.913865178562973,18.3,0.5372406581210418
0,approach,2.175757433341177,-1.479860360327108,1.4049025532146209,3.441783891934897,-0.962290538462285,3.926229393345531,18.4,0.5372406581210418
0,approach,2.1694851487771687,-1.4781709247299695,1.4026257705222624,3.473199818470841,-0.9624502119866837,3.9385936081280892,18.5,0.5372406581210418
0,approach,2.1632128642131603,-1.4764814891328308,1.400348987829904,3.5046157450067854,-0.9626098855110824,3.9509578229106475,18.6,0.5372406581210418
0,approach,2.156940579649152,-1.4747920535356922,1.398072205137546,3.5360316715427293,-0.9627695590354811,3.9633220376932057,18.7,0.5372406581210418
0,approach,2.150668295085143,-1.4731026179385536,1.3957954224451874,3.5674475980786746,-0.9629292325598797,3.9756862524757643,18.8,0.5372406581210418
0,approach,2.144396010521135,-1.471413182341415,1.3935186397528292,3.598863524614619,-0.9630889060842786,3.9880504672583226,18.9,0.5372406581210418
0,approach,2.1381237259571266,-1.4697237467442763,1.391241857060471,3.630279451150563,-0.9632485796086773,4.000414682040881,19.0,0.5372406581210418
0,approach,2.1318514413931178,-1.4680343111471377,1.3889650743681126,3.661695377686508,-0.9634082531330759,4.0127788968234395,19.1,0.5372406581210418
0,approach,2.1255791568291094,-1.466344875549999,1.3866882916757541,3.6931113042224535,-0.9635679266574747,4.025143111605998,19.2,0.5372406581210418
0,approach,2.119306872265101,-1.4646554399528604,1.384411508983396,3.7245272307583965,-0.9637276001818733,4.037507326388556,19.3,0.5372406581210418
0,approach,2.1130345877010925,-1.462966004355722,1.3821347262910375,3.755943157294342,-0.9638872737062721,4.049871541171115,19.4,0.5372406581210418
0,approach,2.106762303137084,-1.4612765687585831,1.3798579435986793,3.787359083830286,-0.9640469472306707,4.062235755953673,19.5,0.5372406581210418
0,approach,2.1004900185730757,-1.4595871331614447,1.377581160906321,3.8187750103662297,-0.9642066207550695,4.074599970736231,19.6,0.5372406581210418
0,approach,2.0942177340090673,-1.4578976975643059,1.3753043782139625,3.8501909369021754,-0.9643662942794682,4.08696418551879,19.7,0.5372406581210418
0,approach,2.0879454494450593,-1.4562082619671672,1.3730275955216045,3.8816068634381193,-0.9645259678038669,4.099328400301348,19.8,0.5372406581210418
0,approach,2.081673164881051,-1.4545188263700288,1.370750812829246,3.9130227899740637,-0.9646856413282656,4.111692615083907,19.9,0.5372406581210418
0,approach,2.0754008803170425,-1.4528293907728902,1.3684740301368876,3.944438716510008,-0.9648453148526643,4.124056829866465,20.0,0.5372406581210418
0,approach,2.0691285957530337,-1.4511399551757513,1.3661972474445294,3.975854643045953,-0.965004988377063,4.1364210446490235,20.1,0.5372406581210418
0,approach,2.0628563111890252,-1.4494505195786127,1.363920464752171,4.007270569581898,-0.9651646619014618,4.148785259431582,20.2,0.5372406581210418
0,approach,2.056584026625017,-1.4477610839814743,1.3616436820598128,4.038686496117841,-0.9653243354258605,4.16114947421414,20.3,0.5372406581210418
0,approach,2.0503117420610084,-1.4460716483843357,1.3593668993674544,4.070102422653787,-0.9654840089502592,4.173513688996699,20.4,0.5372406581210418
0,approach,2.044039457497,-1.444382212787197,1.3570901166750962,4.101518349189731,-0.9656436824746578,4.185877903779256,20.5,0.5372406581210418
0,approach,2.0377671729329916,-1.4426927771900584,1.3548133339827377,4.132934275725675,-0.9658033559990565,4.198242118561815,20.6,0.5372406581210418
0,approach,2.031494888368983,-1.4410033415929195,1.3525365512903795,4.164350202261621,-0.9659630295234553,4.210606333344374,20.7,0.5372406581210418
0,approach,2.025692215792189,-1.4394403956663224,1.3504302335113556,4.193413988115783,-0.9661107481372734,4.222044827456077,20.8,0.5372406581210418
0,approach,2.020887358410826,-1.4381462105864826,1.3486861136434671,4.217480027366419,-0.9662330653734392,4.23151638252608,20.9,0.5372406581210418
0,approach,2.017080766122302,-1.4371209075329625,1.347304354995413,4.236546066617057,-0.9663299697789162,4.239020111695992,21.0,0.5372406581210418
0,approach,2.014272438926618,-1.4363644865057617,1.3462849575671931,4.250612105867695,-0.9664014613537043,4.244556014965813,21.1,0.5372406581210418
0,approach,2.0124623768237733,-1.435876947504881,1.3456279213588076,4.259678145118332,-0.9664475400978033,4.248124092335542,21.2,0.5372406581210418
0,approach,2.0116505798137685,-1.4356582905303197,1.3453332463702568,4.263744184368967,-0.9664682060112135,4.2497243438051795,21.3,0.5372406581210418
0,approach,2.011601615331543,-1.4356451019802112,1.34531547270509,4.263989432262421,-0.9664694524998522,4.249820864836516,21.331320785,0.5372406581210418
0,center,2.011601615331543,-1.4356451019802112,1.34531547270509,4.263989432262421,-0.9664694524998522,4.249820864836516,21.331320785,0.5372406581210418
0,center,2.0220028066706766,-1.43632991840884,1.3417203305906964,4.264513809505533,-0.9914457866645826,4.24424463911103,21.431320785,0.5372406581210418
0,center,2.037094815616936,-1.4319155522495257,1.3400166035855636,4.255838067332549,-1.0201788084814785,4.2422704218286125,21.531320785,0.5372406581210418
0,center,2.0571471506943126,-1.404507642350906,1.3490102847201388,4.20910185419716,-1.030851216583056,4.262114290406433,21.631320785,0.5372406581210418
0,center,2.098702460176031,-1.3382958740138826,1.358511875129035,4.112930995260855,-1.0532440006982282,4.302659646060007,21.731320785,0.5372406581210418
0,center,2.1507259615501355,-1.2355576447791308,1.3483826889133852,3.996545018725758,-1.082242536902099,4.351963985501641,21.831320785,0.5372406581210418
0,center,2.1847268287493136,-1.154609838158115,1.3244457286491769,3.925067692283546,-1.1017289587361088,4.383358727349452,21.931320785,0.5372406581210418
0,center,2.197667083573353,-1.1206119282738782,1.3109178871752911,3.899306886445672,-1.1092476051732174,4.395144839309952,22.031320785,0.5372406581210418
0,center,2.1979706666680063,-1.1198011661335903,1.310581538891476,3.8987091829786173,-1.1094243850344518,4.395420723241162,22.049329251,0.5372406581210418
1,approach,1.5400809756241274,-1.6199397577352357,1.3999678228092844,-1.199945876570465,-1.6000818166478072,-0.10990594776300713,0.0,0.4890662214235655
1,approach,1.5404940025675111,-1.6197976581166083,1.400300640261684,-1.2012476142617883,-1.6001565367610622,-0.10740594776300713,0.1,0.4890662214235655
1,approach,1.5417330833976624,-1.6193713592607262,1.4012990926188833,-1.2051528273357583,-1.6003806971008276,-0.09990594776300717,0.2,0.4890662214235655
1,approach,1.543798218114581,-1.6186608611675892,1.402963179880882,-1.2116615157923751,-1.6007542976671028,-0.08740594776300714,0.30000000000000004,0.4890662214235655
1,approach,1.546689406718267,-1.6176661638371976,1.4052929020476799,-1.2207736796316386,-1.6012773384598882,-0.06990594776300701,0.4,0.4890662214235655
1,approach,1.5504066492087207,-1.6163872672695512,1.4082882591192771,-1.232489318853549,-1.6019498194791835,-0.04740594776300689,0.5,0.4890662214235655
1,approach,1.5549499455859417,-1.61482417146465,1.4119492510956742,-1.246808433458106,-1.602771740724989,-0.01990594776300681,0.6000000000000001,0.4890662214235655
1,approach,1.5601070640086379,-1.6130498936050082,1.4161048613837195,-1.2630621320048483,-1.6037047076386164,0.011309439666965083,0.7000000000000001,0.4890662214235655
1,approach,1.565297313652914,-1.6112642171331775,1.4202871688375012,-1.2794202502766985,-1.6046436682741263,0.04272536620286404,0.8,0.4890662214235655
1,approach,1.5704875632971902,-1.6094785406613465,1.4244694762912828,-1.2957783685485487,-1.6055826289096362,0.07414129273876296,0.9,0.4890662214235655
1,approach,1.5756778129414661,-1.6076928641895158,1.4286517837450647,-1.3121364868203989,-1.6065215895451461,0.10555721927466183,1.0,0.4890662214235655
1,approach,1.5808680625857416,-1.6059071877176851,1.4328340911988457,-1.3284946050922473,-1.6074605501806558,0.13697314581055736,1.1,0.4890662214235655
1,approach,1.5860583122300174,-1.6041215112458547,1.4370163986526272,-1.3448527233640954,-1.6083995108161657,0.16838907234645284,1.2,0.4890662214235655
1,approach,1.5912485618742929,-1.6023358347740242,1.4411987061064087,-1.3612108416359439,-1.6093384714516756,0.1998049988823482,1.3,0.4890662214235655
1,approach,1.5964388115185684,-1.6005501583021935,1.4453810135601899,-1.3775689599077923,-1.6102774320871853,0.23122092541824368,1.4,0.4890662214235655
1,approach,1.6016290611628439,-1.598764481830363,1.4495633210139711,-1.3939270781796405,-1.6112163927226952,0.2626368519541391,1.5,0.4890662214235655
1,approach,1.6068193108071194,-1.5969788053585323,1.4537456284677523,-1.4102851964514889,-1.6121553533582051,0.2940527784900346,1.6,0.4890662214235655
1,approach,1.6120095604513949,-1.5951931288867016,1.4579279359215336,-1.426643314723337,-1.6130943139937148,0.32546870502593,1.7000000000000002,0.4890662214235655
1,approach,1.6171998100956708,-1.5934074524148711,1.4621102433753153,-1.4430014329951866,-1.614033274629225,0.35688463156182765,1.8,0.4890662214235655
1,approach,1.6223900597399468,-1.5916217759430404,1.4662925508290967,-1.459359551267036,-1.6149722352647347,0.38830055809772523,1.9,0.4890662214235655
1,approach,1.6275803093842225,-1.5898360994712097,1.4704748582828784,-1.4757176695388854,-1.6159111959002448,0.4197164846336227,2.0,0.4890662214235655
1,approach,1.6327705590284984,-1.588050422999379,1.4746571657366598,-1.492075787810735,-1.6168501565357547,0.4511324111695204,2.1,0.4890662214235655
1,approach,1.6379608086727744,-1.5862647465275483,1.4788394731904415,-1.5084339060825844,-1.6177891171712644,0.48254833770541805,2.2,0.4890662214235655
1,approach,1.64315105831705,-1.5844790700557176,1.4830217806442232,-1.524792024354434,-1.6187280778067745,0.5139642642413157,2.3,0.4890662214235655
1,approach,1.6483413079613263,-1.5826933935838872,1.4872040880980046,-1.5411501426262835,-1.6196670384422844,0.5453801907772133,2.4,0.4890662214235655
1,approach,1.653531557605602,-1.5809077171120562,1.4913863955517863,-1.5575082608981328,-1.6206059990777943,0.5767961173131108,2.5,0.4890662214235655
1,approach,1.658721807249878,-1.5791220406402258,1.495568703005568,-1.5738663791699823,-1.6215449597133043,0.6082120438490085,2.6,0.4890662214235655
1,approach,1.663912056894154,-1.5773363641683948,1.4997510104593494,-1.5902244974418318,-1.622483920348814,0.639627970384906,2.7,0.4890662214235655
1,approach,1.6691023065384296,-1.5755506876965641,1.503933317913131,-1.6065826157136813,-1.6234228809843239,0.6710438969208037,2.8,0.4890662214235655
1,approach,1.6742925561827056,-1.5737650112247334,1.5081156253669126,-1.6229407339855308,-1.6243618416198338,0.7024598234567013,2.9,0.4890662214235655
1,approach,1.6794828058269813,-1.5719793347529027,1.512297932820694,-1.6392988522573801,-1.6253008022553437,0.7338757499925987,3.0,0.4890662214235655
1,approach,1.6846730554712572,-1.570193658281072,1.5164802402744757,-1.6556569705292297,-1.6262397628908536,0.7652916765284965,3.1,0.4890662214235655
1,approach,1.6898633051155332,-1.5684079818092416,1.5206625477282572,-1.672015088801079,-1.6271787235263635,0.7967076030643939,3.2,0.4890662214235655
1,approach,1.695053554759809,-1.5666223053374106,1.5248448551820388,-1.6883732070729287,-1.6281176841618732,0.8281235296002916,3.3,0.4890662214235655
1,approach,1.7002438044040848,-1.56483662886558,1.5290271626358203,-1.704731325344778,-1.629056644797383,0.8595394561361893,3.4,0.4890662214235655
1,approach,1.7054340540483608,-1.5630509523937492,1.533209470089602,-1.7210894436166275,-1.6299956054328932,0.8909553826720867,3.5,0.4890662214235655
1,approach,1.7106243036926365,-1.5612652759219185,1.5373917775433834,-1.7374475618884768,-1.630934566068403,0.9223713092079844,3.6,0.4890662214235655
1,approach,1.7158145533369125,-1.5594795994500878,1.541574084997165,-1.7538056801603263,-1.6318735267039128,0.953787235743882,3.7,0.4890662214235655
1,approach,1.7210048029811884,-1.5576939229782572,1.5457563924509465,-1.7701637984321756,-1.6328124873394227,0.9852031622797796,3.8,0.4890662214235655
1,approach,1.7261950526254644,-1.5559082465064265,1.5499386999047282,-1.7865219167040254,-1.6337514479749327,1.0166190888156772,3.9,0.4890662214235655
1,approach,1.7313853022697403,-1.5541225700345958,1.5541210073585099,-1.8028800349758747,-1.6346904086104426,1.0480350153515747,4.0,0.4890662214235655
1,approach,1.7365755519140185,-1.5523368935627642,1.5583033148122931,-1.8192381532477315,-1.635629369245953,1.0794509418874865,4.1,0.4890662214235655
1,approach,1.7417658015582966,-1.5505512170909326,1.5624856222660768,-1.8355962715195882,-1.636568329881463,1.110866868423398,4.2,0.4890662214235655
1,approach,1.7469560512025748,-1.5487655406191012,1.5666679297198602,-1.851954389791445,-1.6375072905169734,1.1422827949593093,4.3,0.4890662214235655
1,approach,1.752146300846853,-1.5469798641472698,1.5708502371736435,-1.8683125080633016,-1.6384462511524838,1.1736987214952208,4.4,0.4890662214235655
1,approach,1.757336550491131,-1.5451941876754385,1.5750325446274271,-1.8846706263351585,-1.6393852117879941,1.2051146480311328,4.5,0.4890662214235655
1,approach,1.7625268001354093,-1.5434085112036067,1.5792148520812104,-1.901028744607015,-1.6403241724235043,1.236530574567044,4.6,0.4890662214235655
1,approach,1.7677170497796875,-1.5416228347317753,1.5833971595349938,-1.917386862878872,-1.6412631330590148,1.2679465011029556,4.7,0.4890662214235655
1,approach,1.7729072994239656,-1.5398371582599437,1.5875794669887773,-1.9337449811507283,-1.642202093694525,1.299362427638867,4.8,0.4890662214235655
1,approach,1.7780975490682438,-1.5380514817881124,1.5917617744425607,-1.950103099422585,-1.6431410543300353,1.3307783541747782,4.9,0.4890662214235655
1,approach,1.783287798712522,-1.5362658053162808,1.5959440818963442,-1.9664612176944418,-1.6440800149655457,1.36219428071069,5.0,0.4890662214235655
1,approach,1.7884780483568001,-1.5344801288444494,1.6001263893501276,-1.9828193359662987,-1.645018975601056,1.3936102072466017,5.1,0.4890662214235655
1,approach,1.7936682980010783,-1.532694452372618,1.604308696803911,-1.9991774542381553,-1.6459579362365664,1.425026133782513,5.2,0.4890662214235655
1,approach,1.7988585476453567,-1.5309087759007864,1.6084910042576945,-2.015535572510012,-1.6468968968720767,1.4564420603184247,5.3,0.4890662214235655
1,approach,1.8040487972896349,-1.529123099428955,1.612673311711478,-2.0318936907818688,-1.6478358575075869,1.4878579868543362,5.4,0.4890662214235655
1,approach,1.809239046933913,-1.5273374229571235,1.6168556191652614,-2.0482518090537254,-1.6487748181430972,1.5192739133902475,5.5,0.4890662214235655
1,approach,1.8144292965781912,-1.525551746485292,1.6210379266190449,-2.0646099273255825,-1.6497137787786078,1.5506898399261595,5.6,0.4890662214235655
1,approach,1.8196195462224694,-1.5237660700134608,1.6252202340728283,-2.0809680455974386,-1.650652739414118,1.5821057664620704,5.7,0.4890662214235655
1,approach,1.8248097958667475,-1.5219803935416292,1.6294025415266118,-2.0973261638692957,-1.6515917000496283,1.613521692997982,5.8,0.4890662214235655
1,approach,1.8300000455110248,-1.5201947170697976,1.6335848489803946,-2.11368428214115,-1.6525306606851382,1.6449376195338898,5.9,0.4890662214235655
1,approach,1.8351902951553016,-1.5184090405979667,1.6377671564341767,-2.1300424004130023,-1.6534696213206483,1.6763535460697925,6.0,0.4890662214235655
1,approach,1.8403805447995785,-1.5166233641261357,1.641949463887959,-2.1464005186848545,-1.6544085819561585,1.7077694726056958,6.1,0.4890662214235655
1,approach,1.8455707944438553,-1.5148376876543048,1.6461317713417414,-2.1627586369567067,-1.6553475425916684,1.7391853991415986,6.2,0.4890662214235655
1,approach,1.850761044088132,-1.513052011182474,1.6503140787955237,-2.179116755228559,-1.6562865032271787,1.7706013256775017,6.3,0.4890662214235655
1,approach,1.855951293732409,-1.5112663347106428,1.654496386249306,-2.1954748735004115,-1.6572254638626887,1.8020172522134048,6.4,0.4890662214235655
1,approach,1.8611415433766856,-1.5094806582388116,1.6586786937030884,-2.2118329917722632,-1.6581644244981988,1.8334331787493074,6.5,0.4890662214235655
1,approach,1.8663317930209624,-1.507694981766981,1.6628610011568707,-2.228191110044116,-1.6591033851337087,1.8648491052852105,6.6,0.4890662214235655
1,approach,1.871522042665239,-1.5059093052951498,1.6670433086106529,-2.244549228315968,-1.6600423457692188,1.8962650318211134,6.7,0.4890662214235655
1,approach,1.8767122923095159,-1.5041236288233186,1.6712256160644352,-2.26090734658782,-1.6609813064047287,1.9276809583570165,6.8,0.4890662214235655
1,approach,1.8819025419537925,-1.5023379523514877,1.6754079235182173,-2.2772654648596724,-1.6619202670402389,1.9590968848929196,6.9,0.4890662214235655
1,approach,1.8870927915980693,-1.5005522758796566,1.6795902309719997,-2.2936235831315246,-1.6628592276757488,1.9905128114288222,7.0,0.4890662214235655
1,approach,1.8922830412423461,-1.4987665994078256,1.683772538425782,-2.3099817014033768,-1.663798188311259,2.0219287379647253,7.1,0.4890662214235655
1,approach,1.897473290886623,-1.4969809229359947,1.6879548458795643,-2.3263398196752294,-1.664737148946769,2.0533446645006284,7.2,0.4890662214235655
1,approach,1.9026635405308996,-1.4951952464641636,1.6921371533333467,-2.3426979379470816,-1.665676109582279,2.0847605910365314,7.3,0.4890662214235655
1,approach,1.9078537901751764,-1.4934095699923327,1.696319460787129,-2.3590560562189338,-1.666615070217789,2.1161765175724345,7.4,0.4890662214235655
1,approach,1.9130440398194533,-1.4916238935205017,1.7005017682409111,-2.375414174490786,-1.6675540308532992,2.147592444108337,7.5,0.4890662214235655
1,approach,1.9182342894637299,-1.4898382170486706,1.7046840756946935,-2.391772292762638,-1.6684929914888094,2.1790083706442402,7.6,0.4890662214235655
1,approach,1.9234245391080067,-1.4880525405768397,1.7088663831484758,-2.4081304110344903,-1.6694319521243193,2.2104242971801433,7.7,0.4890662214235655
1,approach,1.9286147887522833,-1.4862668641050085,1.713048690602258,-2.4244885293063425,-1.6703709127598292,2.2418402237160464,7.8,0.4890662214235655
1,approach,1.9338050383965601,-1.4844811876331776,1.7172309980560403,-2.4408466475781947,-1.6713098733953393,2.273256150251949,7.9,0.4890662214235655
1,approach,1.9389952880408372,-1.4826955111613467,1.7214133055098226,-2.4572047658500473,-1.6722488340308497,2.3046720767878526,8.0,0.4890662214235655
1,approach,1.9441855376851092,-1.480909834689517,1.7255956129636012,-2.473562884121885,-1.6731877946663587,2.3360880033237272,8.1,0.4890662214235655
1,approach,1.9493757873293815,-1.479124158217688,1.72977792041738,-2.489921002393723,-1.6741267553018682,2.367503929859603,8.2,0.4890662214235655
1,approach,1.9545660369736535,-1.4773384817458584,1.7339602278711586,-2.5062791206655604,-1.6750657159373772,2.398919856395478,8.3,0.4890662214235655
1,approach,1.9597562866179257,-1.475552805274029,1.738142535324937,-2.522637238937398,-1.6760046765728864,2.4303357829313526,8.4,0.4890662214235655
1,approach,1.964946536262198,-1.4737671288021996,1.7423248427787155,-2.538995357209236,-1.6769436372083957,2.4617517094672277,8.5,0.4890662214235655
1,approach,1.97013678590647,-1.4719814523303703,1.746507150232494,-2.555353475481074,-1.677882597843905,2.4931676360031023,8.6,0.4890662214235655
1,approach,1.9753270355507422,-1.4701957758585409,1.7506894576862726,-2.5717115937529114,-1.6788215584794142,2.524583562538978,8.7,0.4890662214235655
1,approach,1.9805172851950146,-1.4684100993867115,1.7548717651400514,-2.5880697120247493,-1.6797605191149234,2.5559994890748534,8.8,0.4890662214235655
1,approach,1.9857075348392865,-1.466624422914882,1.7590540725938297,-2.604427830296587,-1.6806994797504324,2.587415415610728,8.9,0.4890662214235655
1,approach,1.9908977844835587,-1.4648387464430526,1.7632363800476083,-2.6207859485684244,-1.6816384403859417,2.6188313421466027,9.0,0.4890662214235655
1,approach,1.9960880341278309,-1.463053069971223,1.7674186875013869,-2.6371440668402624,-1.682577401021451,2.650247268682478,9.1,0.4890662214235655
1,approach,2.0012782837721033,-1.4612673934993936,1.7716009949551654,-2.6535021851121003,-1.6835163616569602,2.681663195218354,9.2,0.4890662214235655
1,approach,2.0064685334163754,-1.4594817170275642,1.7757833024089442,-2.669860303383938,-1.6844553222924696,2.713079121754229,9.3,0.4890662214235655
1,approach,2.0116587830606476,-1.4576960405557349,1.7799656098627228,-2.686218421655776,-1.6853942829279787,2.7444950482901036,9.4,0.4890662214235655
1,approach,2.0168490327049198,-1.4559103640839055,1.7841479173165014,-2.7025765399276134,-1.686333243563488,2.7759109748259783,9.5,0.4890662214235655
1,approach,2.022039282349192,-1.454124687612076,1.78833022477028,-2.7189346581994513,-1.6872722041989971,2.807326901361854,9.6,0.4890662214235655
1,approach,2.027229531993464,-1.4523390111402465,1.7925125322240585,-2.735292776471289,-1.6882111648345064,2.838742827897729,9.7,0.4890662214235655
1,approach,2.0324197816377363,-1.450553334668417,1.796694839677837,-2.7516508947431264,-1.6891501254700154,2.8701587544336036,9.8,0.4890662214235655
1,approach,2.0376100312820085,-1.4487676581965878,1.8008771471316156,-2.768009013014965,-1.6900890861055249,2.901574680969479,9.9,0.4890662214235655
1,approach,2.0428002809262806,-1.4469819817247582,1.8050594545853942,-2.784367131286802,-1.691028046741034,2.932990607505354,10.0,0.4890662214235655
1,approach,2.047990530570553,-1.4451963052529289,1.8092417620391728,-2.8007252495586403,-1.6919670073765432,2.96440653404123,10.1,0.4890662214235655
1,approach,2.053180780214825,-1.4434106287810997,1.8134240694929515,-2.817083367830478,-1.6929059680120524,2.9958224605771044,10.2,0.4890662214235655
1,approach,2.058371029859097,-1.4416249523092701,1.8176063769467299,-2.8334414861023154,-1.6938449286475616,3.027238387112979,10.3,0.4890662214235655
1,approach,2.0635612795033693,-1.4398392758374408,1.8217886844005085,-2.8497996043741534,-1.6947838892830709,3.058654313648854,10.4,0.4890662214235655
1,approach,2.0687515291476415,-1.4380535993656114,1.8259709918542872,-2.866157722645991,-1.6957228499185801,3.0900702401847293,10.5,0.4890662214235655
1,approach,2.0739417787919137,-1.436267922893782,1.8301532993080658,-2.8825158409178293,-1.6966618105540894,3.121486166720605,10.6,0.4890662214235655
1,approach,2.079132028436186,-1.4344822464219524,1.8343356067618442,-2.898873959189667,-1.6976007711895986,3.15290209325648,10.7,0.4890662214235655
1,approach,2.084322278080458,-1.432696569950123,1.8385179142156227,-2.9152320774615044,-1.6985397318251079,3.184318019792355,10.8,0.4890662214235655
1,approach,2.08951252772473,-1.4309108934782937,1.8427002216694013,-2.931590195733342,-1.6994786924606171,3.2157339463282297,10.9,0.4890662214235655
1,approach,2.0947027773690023,-1.4291252170064643,1.84688252912318,-2.94794831400518,-1.7004176530961264,3.2471498728641053,11.0,0.4890662214235655
1,approach,2.0998930270132745,-1.4273395405346347,1.8510648365769586,-2.964306432277018,-1.7013566137316356,3.278565799399981,11.1,0.4890662214235655
1,approach,2.1050832766575467,-1.4255538640628054,1.8552471440307372,-2.9806645505488554,-1.7022955743671446,3.3099817259358555,11.2,0.4890662214235655
1,approach,2.110273526301819,-1.423768187590976,1.8594294514845158,-2.997022668820693,-1.7032345350026539,3.3413976524717306,11.3,0.4890662214235655
1,approach,2.115463775946091,-1.4219825111191466,1.8636117589382943,-3.013380787092531,-1.7041734956381631,3.3728135790076057,11.4,0.4890662214235655
1,approach,2.120654025590366,-1.4201968346473162,1.8677940663920753,-3.0297389053643777,-1.7051124562736728,3.4042295055434986,11.5,0.4890662214235655
1,approach,2.125844275234641,-1.4184111581754857,1.8719763738458561,-3.046097023636224,-1.7060514169091827,3.435645432079391,11.6,0.4890662214235655
1,approach,2.131034524878916,-1.4166254817036552,1.8761586812996371,-3.062455141908071,-1.7069903775446924,3.467061358615283,11.7,0.4890662214235655
1,approach,2.136224774523191,-1.414839805231825,1.880340988753418,-3.0788132601799174,-1.707929338180202,3.498477285151175,11.8,0.4890662214235655
1,approach,2.141415024167466,-1.4130541287599945,1.8845232962071985,-3.095171378451764,-1.7088682988157118,3.5298932116870674,11.9,0.4890662214235655
1,approach,2.146605273811741,-1.4112684522881642,1.8887056036609795,-3.1115294967236107,-1.7098072594512217,3.56130913822296,12.0,0.4890662214235655
1,approach,2.1517955234560158,-1.4094827758163337,1.8928879111147603,-3.1278876149954575,-1.7107462200867312,3.5927250647588522,12.1,0.4890662214235655
1,approach,2.1569857731002906,-1.4076970993445035,1.8970702185685413,-3.1442457332673044,-1.711685180722241,3.624140991294744,12.2,0.4890662214235655
1,approach,2.1621760227445654,-1.405911422872673,1.901252526022322,-3.1606038515391504,-1.7126241413577508,3.6555569178306357,12.3,0.4890662214235655
1,approach,2.1673662723888407,-1.4041257464008425,1.905434833476103,-3.1769619698109977,-1.7135631019932605,3.6869728443665286,12.4,0.4890662214235655
1,approach,2.1725565220331156,-1.402340069929012,1.9096171409298839,-3.1933200880828436,-1.7145020626287701,3.71838877090242,12.5,0.4890662214235655
1,approach,2.177746771677391,-1.4005543934571818,1.913799448383665,-3.209678206354691,-1.7154410232642798,3.7498046974383135,12.6,0.4890662214235655
1,approach,2.1829370213216657,-1.3987687169853513,1.9179817558374457,-3.2260363246265373,-1.7163799838997897,3.781220623974205,12.7,0.4890662214235655
1,approach,2.1881272709659405,-1.396983040513521,1.9221640632912265,-3.242394442898384,-1.7173189445352994,3.812636550510097,12.8,0.4890662214235655
1,approach,2.193317520610216,-1.3951973640416906,1.9263463707450075,-3.258752561170231,-1.7182579051708091,3.84405247704599,12.9,0.4890662214235655
1,approach,2.1985077702544906,-1.3934116875698603,1.9305286781987883,-3.2751106794420775,-1.7191968658063188,3.875468403581882,13.0,0.4890662214235655
1,approach,2.2036980198987655,-1.3916260110980296,1.934710985652569,-3.2914687977139243,-1.7201358264418285,3.9068843301177743,13.1,0.4890662214235655
1,approach,2.2088882695430407,-1.3898403346261994,1.9388932931063498,-3.3078269159857707,-1.7210747870773382,3.9383002566536662,13.2,0.4890662214235655
1,approach,2.2140785191873156,-1.388054658154369,1.9430756005601308,-3.3241850342576176,-1.722013747712848,3.969716183189559,13.3,0.4890662214235655
1,approach,2.219268768831591,-1.3862689816825386,1.9472579080139116,-3.3405431525294644,-1.7229527083483578,4.001132109725451,13.4,0.4890662214235655
1,approach,2.2244590184758657,-1.3844833052107082,1.9514402154676926,-3.356901270801311,-1.7238916689838675,4.032548036261343,13.5,0.4890662214235655
1,approach,2.2296492681201405,-1.382697628738878,1.9556225229214734,-3.3732593890731577,-1.7248306296193774,4.063963962797236,13.6,0.4890662214235655
1,approach,2.234839517764416,-1.3809119522670474,1.9598048303752542,-3.389617507345004,-1.725769590254887,4.0953798893331275,13.7,0.4890662214235655
1,approach,2.2400297674086906,-1.3791262757952172,1.963987137829035,-3.405975625616851,-1.7267085508903968,4.126795815869021,13.8,0.4890662214235655
1,approach,2.2452200170529655,-1.3773405993233867,1.9681694452828158,-3.4223337438886974,-1.7276475115259065,4.158211742404912,13.9,0.4890662214235655
1,approach,2.2504102666972408,-1.3755549228515564,1.9723517527365968,-3.4386918621605442,-1.7285864721614164,4.189627668940804,14.0,0.4890662214235655
1,approach,2.2556005163415156,-1.373769246379726,1.9765340601903778,-3.455049980432391,-1.729525432796926,4.221043595476697,14.1,0.4890662214235655
1,approach,2.2607907659857904,-1.3719835699078957,1.9807163676441586,-3.4714080987042375,-1.7304643934324357,4.252459522012589,14.2,0.4890662214235655
1,approach,2.2659810156300657,-1.3701978934360652,1.9848986750979394,-3.4877662169760844,-1.7314033540679457,4.283875448548481,14.3,0.4890662214235655
1,approach,2.2711712652743405,-1.3684122169642348,1.9890809825517202,-3.5041243352479308,-1.7323423147034551,4.3152913750843735,14.4,0.4890662214235655
1,approach,2.2763615149186154,-1.3666265404924045,1.9932632900055012,-3.520482453519777,-1.733281275338965,4.346707301620265,14.5,0.4890662214235655
1,approach,2.2815517645628907,-1.364840864020574,1.997445597459282,-3.536840571791624,-1.7342202359744747,4.3781232281561575,14.6,0.4890662214235655
1,approach,2.2867420142071655,-1.3630551875487436,2.0016279049130627,-3.5531986900634704,-1.7351591966099844,4.40953915469205,14.7,0.4890662214235655
1,approach,2.2919322638514408,-1.361269511076913,2.005810212366844,-3.5695568083353173,-1.736098157245494,4.440955081227942,14.8,0.4890662214235655
1,approach,2.297122513495715,-1.3594838346050828,2.0099925198206243,-3.5859149266071637,-1.7370371178810038,4.472371007763835,14.9,0.4890662214235655
1,approach,2.3023127631399904,-1.3576981581332523,2.0141748272744056,-3.60227304487901,-1.7379760785165135,4.503786934299726,15.0,0.4890662214235655
1,approach,2.3075030127842653,-1.355912481661422,2.0183571347281863,-3.618631163150857,-1.7389150391520234,4.53520286083562,15.1,0.4890662214235655
1,approach,2.3126932624285406,-1.3541268051895916,2.022539442181967,-3.6349892814227034,-1.739853999787533,4.566618787371511,15.2,0.4890662214235655
1,approach,2.3178835120728154,-1.3523411287177611,2.026721749635748,-3.6513473996945502,-1.7407929604230428,4.598034713907403,15.3,0.4890662214235655
1,approach,2.3230737617170907,-1.3505554522459307,2.030904057089529,-3.667705517966397,-1.7417319210585525,4.629450640443296,15.4,0.4890662214235655
1,approach,2.3282640113613655,-1.3487697757741004,2.03508636454331,-3.684063636238244,-1.7426708816940624,4.6608665669791876,15.5,0.4890662214235655
1,approach,2.3334542610056404,-1.34698409930227,2.0392686719970907,-3.700421754510091,-1.743609842329572,4.69228249351508,15.6,0.4890662214235655
1,approach,2.3386445106499156,-1.3451984228304397,2.0434509794508715,-3.716779872781937,-1.7445488029650817,4.723698420050972,15.7,0.4890662214235655
1,approach,2.3438347602941905,-1.3434127463586092,2.0476332869046523,-3.7331379910537836,-1.7454877636005912,4.755114346586864,15.8,0.4890662214235655
1,approach,2.3490250099384657,-1.3416270698867787,2.051815594358433,-3.7494961093256305,-1.7464267242361011,4.786530273122756,15.9,0.4890662214235655
1,approach,2.3542152595827406,-1.3398413934149485,2.0559979018122143,-3.765854227597477,-1.7473656848716108,4.817946199658649,16.0,0.4890662214235655
1,approach,2.359405509227016,-1.338055716943118,2.060180209265995,-3.782212345869324,-1.7483046455071207,4.849362126194542,16.1,0.4890662214235655
1,approach,2.3645957588712907,-1.3362700404712875,2.064362516719776,-3.79857046414117,-1.7492436061426304,4.880778052730433,16.2,0.4890662214235655
1,approach,2.369786008515566,-1.3344843639994572,2.0685448241735567,-3.814928582413018,-1.75018256677814,4.912193979266327,16.3,0.4890662214235655
1,approach,2.374976258159841,-1.3326986875276268,2.0727271316273375,-3.8312867006848643,-1.7511215274136498,4.943609905802219,16.4,0.4890662214235655
1,approach,2.380166507804116,-1.3309130110557963,2.0769094390811187,-3.847644818956711,-1.7520604880491597,4.975025832338111,16.5,0.4890662214235655
1,approach,2.385356757448391,-1.329127334583966,2.0810917465348995,-3.864002937228558,-1.7529994486846692,5.006441758874003,16.6,0.4890662214235655
1,approach,2.3905470070926658,-1.3273416581121358,2.0852740539886803,-3.8803610555004044,-1.753938409320179,5.037857685409895,16.7,0.4890662214235655
1,approach,2.3957372567369406,-1.3255559816403053,2.089456361442461,-3.896719173772251,-1.7548773699556888,5.069273611945788,16.8,0.4890662214235655
1,approach,2.400927506381216,-1.323770305168475,2.093638668896242,-3.913077292044098,-1.7558163305911985,5.100689538481681,16.9,0.4890662214235655
1,approach,2.4061177560254907,-1.3219846286966446,2.0978209763500226,-3.929435410315944,-1.7567552912267084,5.132105465017572,17.0,0.4890662214235655
1,approach,2.411308005669766,-1.3201989522248143,2.102003283803804,-3.945793528587791,-1.757694251862218,5.1635213915534655,17.1,0.4890662214235655
1,approach,2.416498255314041,-1.3184132757529836,2.106185591257584,-3.9621516468596374,-1.7586332124977277,5.194937318089356,17.2,0.4890662214235655
1,approach,2.4216885049583157,-1.3166275992811534,2.1103678987113654,-3.9785097651314842,-1.7595721731332374,5.226353244625249,17.3,0.4890662214235655
1,approach,2.426878754602591,-1.314841922809323,2.114550206165146,-3.9948678834033315,-1.7605111337687473,5.257769171161143,17.4,0.4890662214235655
1,approach,2.432069004246866,-1.3130562463374926,2.118732513618927,-4.011226001675177,-1.761450094404257,5.289185097697033,17.5,0.4890662214235655
1,approach,2.4372592538911406,-1.3112705698656622,2.122914821072708,-4.027584119947024,-1.7623890550397667,5.320601024232926,17.6,0.4890662214235655
1,approach,2.442449503535416,-1.309484893393832,2.1270971285264886,-4.043942238218871,-1.7633280156752764,5.352016950768817,17.7,0.4890662214235655
1,approach,2.4476397531796907,-1.3076992169220014,2.13127943598027,-4.060300356490718,-1.7642669763107863,5.383432877304711,17.8,0.4890662214235655
1,approach,2.452830002823966,-1.305913540450171,2.1354617434340506,-4.0766584747625645,-1.7652059369462958,5.414848803840603,17.9,0.4890662214235655
1,approach,2.4580202524682404,-1.3041278639783407,2.1396440508878314,-4.0930165930344105,-1.7661448975818057,5.446264730376495,18.0,0.4890662214235655
1,approach,2.4629135079475875,-1.3024443666942047,2.143587040198008,-4.108438674312103,-1.7670301294279591,5.475882988687071,18.1,0.4890662214235655
1,approach,2.466990254835323,-1.301041784641708,2.1468720862101134,-4.121287364129464,-1.767767647873289,5.500559023465436,18.2,0.4890662214235655
1,approach,2.470240947836292,-1.2999234018264658,2.149491497317419,-4.131532578564181,-1.7683557260921092,5.520235058243806,18.3,0.4890662214235655
1,approach,2.4726655869504937,-1.2990892182484783,2.151445273519926,-4.139174317616252,-1.7687943640844193,5.534911093022177,18.4,0.4890662214235655
1,approach,2.474264172177927,-1.298539233907746,2.152733414817633,-4.144212581285674,-1.769083561850219,5.544587127800543,18.5,0.4890662214235655
1,approach,2.475036703518593,-1.2982734488042682,2.15335592121054,-4.14664736957245,-1.7692233193895086,5.549263162578911,18.6,0.4890662214235655
1,approach,2.475114932925739,-1.2982465344126068,2.1534189585314856,-4.146893925322585,-1.7692374717596033,5.549736675314576,18.643520695,0.4890662214235655
1,center,2.475114932925739,-1.2982465344126068,2.1534189585314856,-4.146893925322585,-1.7692374717596033,5.549736675314576,18.643520695,0.4890662214235655
1,center,2.467490999450236,-1.305532551474055,2.1542150430036466,-4.134826757321695,-1.746527523263908,5.538546732094601,18.743520695,0.4890662214235655
1,center,2.459674216918781,-1.2993395351699852,2.13569772662604,-4.119097405751319,-1.7297330850289518,5.532328632737249,18.843520695,0.4890662214235655
1,center,2.4495956996444033,-1.2639750091153836,2.0715069951059646,-4.090051280257151,-1.7197546407405122,5.533762341062563,18.943520695,0.4890662214235655
1,center,2.4349247313223312,-1.2020705197548907,1.9573133913445926,-4.037468403986248,-1.7052288134027918,5.535841754146,19.043520695,0.4890662214235655
1,center,2.4196478380481534,-1.118875952880576,1.8007708646297858,-3.9638472911950715,-1.6901024514494571,5.5379984305460095,19.143520695,0.4890662214235655
1,center,2.410245553557715,-1.0534786607027162,1.6756973570585647,-3.9040193541625015,-1.680792537603968,5.539321854088228,19.243520695,0.4890662214235655
1,center,2.4054937742134723,-1.0145934893610284,1.6006223024548867,-3.8677579364871977,-1.6760873625222377,5.539989561620903,19.343520695,0.4890662214235655
1,center,2.40402113652648,-1.0016553701924704,1.5755470591569818,-3.855598967771679,-1.674629162742876,5.540196424744919,19.443520695,0.4890662214235655
1,center,2.4040211332101404,-1.001655340979475,1.5755470025318008,-3.8555989403103497,-1.674629159459049,5.540196425210759,19.443671194,0.4890662214235655
2,approach,1.5400809756241274,-1.6199397577352357,1.3999678228092844,-1.199945876570465,-1.6000818166478072,-0.10990594776300713,0.0,0.6864138353072459
2,approach,1.5383655888074688,-1.6212927075883,1.3996620410685963,-1.2007541352789206,-1.5975818166478073,-0.10994892588806571,0.1,0.6864138353072459
2,approach,1.5332194283574934,-1.6253515571474924,1.3987446958465317,-1.2031789114042872,-1.5900818166478072,-0.11007786026324141,0.2,0.6864138353072459
2,approach,1.5246424942742007,-1.6321163064128135,1.3972157871430908,-1.2072202049465655,-1.5775818166478073,-0.11029275088853427,0.30000000000000004,0.6864138353072459
2,approach,1.512634786557591,-1.6415869553842628,1.3950753149582737,-1.2128780159057546,-1.5600818166478074,-0.11059359776394427,0.4,0.6864138353072459
2,approach,1.4971963052076644,-1.6537635040618406,1.39232327929208,-1.2201523442818552,-1.5375818166478075,-0.11098040088947142,0.5,0.6864138353072459
2,approach,1.4783270502244206,-1.6686459524455468,1.3889596801445103,-1.2290431900748668,-1.5100818166478072,-0.11145316026511572,0.6000000000000001,0.6864138353072459
2,approach,1.4569084645947155,-1.685539093980236,1.3851416419426732,-1.2391352335661032,-1.4788664292178348,-0.11198979179500256,0.7000000000000001,0.6864138353072459
2,approach,1.4353522781095984,-1.702540763256484,1.3812990752620817,-1.24929211204884,-1.4474505026819364,-0.11252987084279886,0.8,0.6864138353072459
2,approach,1.4137960916244812,-1.7195424325327318,1.3774565085814903,-1.2594489905315767,-1.416034576146038,-0.11306994989059517,0.9,0.6864138353072459
2,approach,1.3922399051393652,-1.7365441018089784,1.373613941900899,-1.2696058690143126,-1.3846186496101416,-0.11361002893839142,1.0,0.6864138353072459
2,approach,1.370683718654247,-1.7535457710852271,1.3697713752203073,-1.2797627474970499,-1.3532027230742416,-0.11415010798618776,1.1,0.6864138353072459
2,approach,1.3491275321691287,-1.7705474403614756,1.3659288085397157,-1.289919625979787,-1.3217867965383412,-0.11469018703398408,1.2,0.6864138353072459
2,approach,1.3275713456840106,-1.7875491096377245,1.3620862418591242,-1.3000765044625242,-1.2903708700024412,-0.11523026608178041,1.3,0.6864138353072459
2,approach,1.3060151591988924,-1.8045507789139732,1.3582436751785325,-1.3102333829452613,-1.2589549434665412,-0.11577034512957673,1.4,0.6864138353072459
2,approach,1.2844589727137745,-1.821552448190221,1.3544011084979408,-1.320390261427998,-1.227539016930642,-0.11631042417737304,1.5,0.6864138353072459
2,approach,1.2629027862286584,-1.8385541174664684,1.3505585418173496,-1.3305471399107343,-1.1961230903947448,-0.11685050322516932,1.6,0.6864138353072459
2,approach,1.2413465997435422,-1.8555557867427155,1.3467159751367583,-1.3407040183934706,-1.1647071638588475,-0.1173905822729656,1.7000000000000002,0.6864138353072459
2,approach,1.219790413258426,-1.8725574560189624,1.3428734084561669,-1.3508608968762068,-1.1332912373229505,-0.11793066132076188,1.8,0.6864138353072459
2,approach,1.1982342267733097,-1.8895591252952095,1.3390308417755756,-1.361017775358943,-1.1018753107870531,-0.11847074036855815,1.9,0.6864138353072459
2,approach,1.1766780402881936,-1.9065607945714564,1.3351882750949842,-1.3711746538416791,-1.070459384251156,-0.11901081941635443,2.0,0.6864138353072459
2,approach,1.1551218538030725,-1.9235624638477073,1.331345708414392,-1.3813315323244177,-1.039043457715252,-0.11955089846415082,2.1,0.6864138353072459
2,approach,1.1335656673179517,-1.9405641331239585,1.3275031417338,-1.3914884108071561,-1.0076275311793481,-0.12009097751194722,2.2,0.6864138353072459
2,approach,1.1120094808328305,-1.9575658024002092,1.3236605750532078,-1.4016452892898947,-0.9762116046434438,-0.12063105655974361,2.3,0.6864138353072459
2,approach,1.0904532943477097,-1.97456747167646,1.3198180083726156,-1.4118021677726331,-0.9447956781075398,-0.12117113560754,2.4,0.6864138353072459
2,approach,1.0688971078625886,-1.9915691409527108,1.3159754416920233,-1.4219590462553715,-0.9133797515716358,-0.12171121465533641,2.5,0.6864138353072459
2,approach,1.0473409213774676,-2.008570810228962,1.3121328750114312,-1.4321159247381101,-0.8819638250357316,-0.12225129370313279,2.6,0.6864138353072459
2,approach,1.0257847348923501,-2.0255724795052097,1.3082903083308397,-1.4422728032208467,-0.8505478984998329,-0.12279137275092909,2.7,0.6864138353072459
2,approach,1.0042285484072349,-2.042574148781456,1.3044477416502485,-1.4524296817035827,-0.819131971963937,-0.12333145179872536,2.8,0.6864138353072459
2,approach,0.9826723619221193,-2.0595758180577026,1.3006051749696572,-1.4625865601863184,-0.7877160454280407,-0.12387153084652161,2.9,0.6864138353072459
2,approach,0.9611161754370038,-2.076577487333949,1.2967626082890662,-1.4727434386690543,-0.7563001188921449,-0.12441160989431788,3.0,0.6864138353072459
2,approach,0.9395599889518884,-2.0935791566101956,1.292920041608475,-1.4829003171517903,-0.7248841923562489,-0.12495168894211413,3.1,0.6864138353072459
2,approach,0.918003802466773,-2.110580825886442,1.289077474927884,-1.493057195634526,-0.6934682658203529,-0.12549176798991038,3.2,0.6864138353072459
2,approach,0.8964476159816575,-2.1275824951626885,1.2852349082472925,-1.503214074117262,-0.6620523392844567,-0.12603184703770665,3.3,0.6864138353072459
2,approach,0.874891429496542,-2.144584164438935,1.2813923415667015,-1.5133709525999979,-0.6306364127485609,-0.12657192608550288,3.4,0.6864138353072459
2,approach,0.8533352430114266,-2.1615858337151814,1.2775497748861102,-1.5235278310827336,-0.5992204862126648,-0.12711200513329915,3.5,0.6864138353072459
2,approach,0.831779056526311,-2.1785875029914274,1.273707208205519,-1.5336847095654693,-0.5678045596767687,-0.1276520841810954,3.6,0.6864138353072459
2,approach,0.8102228700411956,-2.1955891722676744,1.269864641524928,-1.5438415880482053,-0.5363886331408727,-0.12819216322889168,3.7,0.6864138353072459
2,approach,0.7886666835560802,-2.212590841543921,1.2660220748443367,-1.5539984665309412,-0.5049727066049766,-0.12873224227668792,3.8,0.6864138353072459
2,approach,0.7671104970709646,-2.2295925108201673,1.2621795081637455,-1.5641553450136771,-0.47355678006908053,-0.12927232132448419,3.9,0.6864138353072459
2,approach,0.7455543105858493,-2.2465941800964133,1.2583369414831544,-1.5743122234964129,-0.4421408535331847,-0.12981240037228042,4.0,0.6864138353072459
2,approach,0.7239981241007241,-2.263595849372668,1.2544943748025614,-1.5844691019791532,-0.4107249269972745,-0.13035247942007694,4.1,0.6864138353072459
2,approach,0.7024419376155991,-2.280597518648922,1.2506518081219686,-1.5946259804618936,-0.37930900046136456,-0.13089255846787343,4.2,0.6864138353072459
2,approach,0.6808857511304741,-2.2975991879251754,1.2468092414413756,-1.6047828589446338,-0.3478930739254547,-0.13143263751566991,4.3,0.6864138353072459
2,approach,0.659329564645349,-2.3146008572014294,1.2429666747607828,-1.6149397374273742,-0.3164771473895447,-0.1319727165634664,4.4,0.6864138353072459
2,approach,0.6377733781602241,-2.3316025264776834,1.2391241080801898,-1.6250966159101146,-0.28506122085363483,-0.13251279561126292,4.5,0.6864138353072459
2,approach,0.6162171916750988,-2.348604195753938,1.235281541399597,-1.635253494392855,-0.25364529431772465,-0.1330528746590594,4.6,0.6864138353072459
2,approach,0.594661005189974,-2.365605865030192,1.2314389747190042,-1.6454103728755953,-0.22222936778181493,-0.1335929537068559,4.7,0.6864138353072459
2,approach,0.573104818704849,-2.382607534306446,1.2275964080384112,-1.6555672513583357,-0.19081344124590488,-0.13413303275465238,4.8,0.6864138353072459
2,approach,0.5515486322197239,-2.3996092035827,1.2237538413578184,-1.665724129841076,-0.15939751470999503,-0.13467311180244887,4.9,0.6864138353072459
2,approach,0.529992445734599,-2.4166108728589535,1.2199112746772254,-1.6758810083238165,-0.12798158817408517,-0.13521319085024536,5.0,0.6864138353072459
2,approach,0.5084362592494739,-2.433612542135208,1.2160687079966326,-1.6860378868065569,-0.09656566163817511,-0.13575326989804187,5.1,0.6864138353072459
2,approach,0.4868800727643488,-2.450614211411462,1.2122261413160398,-1.6961947652892972,-0.06514973510226506,-0.13629334894583836,5.2,0.6864138353072459
2,approach,0.4653238862792237,-2.467615880687716,1.2083835746354468,-1.7063516437720376,-0.033733808566355,-0.13683342799363488,5.3,0.6864138353072459
2,approach,0.44376769979409886,-2.48461754996397,1.204541007954854,-1.716508522254778,-0.0023178820304452703,-0.13737350704143136,5.4,0.6864138353072459
2,approach,0.422211513308974,-2.5016192192402236,1.200698441274261,-1.7266654007375182,0.029098044505464465,-0.13791358608922785,5.5,0.6864138353072459
2,approach,0.4006553268238487,-2.5186208885164776,1.196855874593668,-1.7368222792202586,0.060513971041374834,-0.13845366513702434,5.6,0.6864138353072459
2,approach,0.3790991403387238,-2.535622557792732,1.1930133079130751,-1.746979157702999,0.09192989757728459,-0.13899374418482083,5.7,0.6864138353072459
2,approach,0.3575429538535987,-2.5526242270689856,1.1891707412324821,-1.7571360361857395,0.12334582411319464,-0.13953382323261734,5.8,0.6864138353072459
2,approach,0.3359867673684735,-2.5696258963452396,1.1853281745518893,-1.7672929146684797,0.15476175064910483,-0.14007390228041383,5.9,0.6864138353072459
2,approach,0.3144305808833484,-2.586627565621494,1.1814856078712963,-1.7774497931512203,0.18617767718501488,-0.14061398132821035,6.0,0.6864138353072459
2,approach,0.2928743943982233,-2.603629234897748,1.1776430411907035,-1.7876066716339605,0.21759360372092493,-0.14115406037600683,6.1,0.6864138353072459
2,approach,0.27131820791309846,-2.620630904174002,1.1738004745101107,-1.797763550116701,0.24900953025683467,-0.14169413942380332,6.2,0.6864138353072459
2,approach,0.24976202142797335,-2.637632573450256,1.1699579078295177,-1.8079204285994415,0.2804254567927447,-0.14223421847159984,6.3,0.6864138353072459
2,approach,0.2282058349428485,-2.6546342427265097,1.166115341148925,-1.8180773070821816,0.3118413833286544,-0.14277429751939633,6.4,0.6864138353072459
2,approach,0.20664964845772343,-2.6716359120027637,1.162272774468332,-1.828234185564922,0.34325730986456443,-0.1433143765671928,6.5,0.6864138353072459
2,approach,0.18509346197259832,-2.688637581279018,1.158430207787739,-1.8383910640476626,0.3746732364004745,-0.14385445561498933,6.6,0.6864138353072459
2,approach,0.1635372754874733,-2.7056392505552718,1.154587641107146,-1.8485479425304028,0.4060891629363844,-0.14439453466278582,6.7,0.6864138353072459
2,approach,0.1419810890023482,-2.7226409198315262,1.1507450744265533,-1.8587048210131432,0.4375050894722945,-0.1449346137105823,6.8,0.6864138353072459
2,approach,0.12042490251722311,-2.7396425891077802,1.1469025077459605,-1.8688616994958835,0.46892101600820457,-0.14547469275837882,6.9,0.6864138353072459
2,approach,0.09886871603209825,-2.756644258384034,1.1430599410653675,-1.8790185779786237,0.5003369425441143,-0.1460147718061753,7.0,0.6864138353072459
2,approach,0.07731252954697317,-2.7736459276602883,1.1392173743847747,-1.8891754564613643,0.5317528690800243,-0.1465548508539718,7.1,0.6864138353072459
2,approach,0.055756343061848304,-2.790647596936542,1.1353748077041819,-1.8993323349441045,0.563168795615934,-0.14709492990176828,7.2,0.6864138353072459
2,approach,0.03420015657672298,-2.8076492662127963,1.1315322410235888,-1.909489213426845,0.5945847221518444,-0.1476350089495648,7.3,0.6864138353072459
2,approach,0.01264397009159811,-2.8246509354890503,1.1276896743429958,-1.9196460919095852,0.6260006486877542,-0.1481750879973613,7.4,0.6864138353072459
2,approach,-0.008912216393526698,-2.841652604765304,1.1238471076624033,-1.9298029703923254,0.6574165752236638,-0.14871516704515778,7.5,0.6864138353072459
2,approach,-0.0304684028786518,-2.858654274041558,1.1200045409818102,-1.9399598488750658,0.6888325017595738,-0.14925524609295426,7.6,0.6864138353072459
2,approach,-0.052024589363776894,-2.875655943317812,1.1161619743012174,-1.9501167273578062,0.720248428295484,-0.14979532514075078,7.7,0.6864138353072459
2,approach,-0.073580775848902,-2.8926576125940664,1.1123194076206246,-1.9602736058405468,0.751664354831394,-0.15033540418854727,7.8,0.6864138353072459
2,approach,-0.0951369623340271,-2.90965928187032,1.1084768409400316,-1.970430484323287,0.783080281367304,-0.15087548323634378,7.9,0.6864138353072459
2,approach,-0.11669314881915197,-2.926660951146574,1.1046342742594386,-1.9805873628060273,0.8144962079032138,-0.15141556228414027,8.0,0.6864138353072459
2,approach,-0.13824933530427685,-2.943662620422828,1.1007917075788458,-1.9907442412887677,0.8459121344391235,-0.15195564133193673,8.1,0.6864138353072459
2,approach,-0.15980552178940216,-2.960664289699082,1.096949140898253,-2.0009011197715076,0.8773280609750338,-0.15249572037973325,8.2,0.6864138353072459
2,approach,-0.18136170827452713,-2.977665958975336,1.09310657421766,-2.0110579982542482,0.9087439875109438,-0.15303579942752976,8.3,0.6864138353072459
2,approach,-0.202917894759652,-2.99466762825159,1.0892640075370672,-2.021214876736989,0.9401599140468535,-0.15357587847532625,8.4,0.6864138353072459
2,approach,-0.22447408124477708,-3.0116692975278436,1.0854214408564742,-2.031371755219729,0.9715758405827635,-0.15411595752312274,8.5,0.6864138353072459
2,approach,-0.24603026772990194,-3.028670966804098,1.0815788741758814,-2.0415286337024696,1.0029917671186732,-0.15465603657091925,8.6,0.6864138353072459
2,approach,-0.26758645421502725,-3.045672636080352,1.0777363074952884,-2.05168551218521,1.0344076936545836,-0.15519611561871574,8.7,0.6864138353072459
2,approach,-0.2891426407001521,-3.062674305356606,1.0738937408146956,-2.06184239066795,1.0658236201904934,-0.15573619466651223,8.8,0.6864138353072459
2,approach,-0.3106988271852772,-3.07967597463286,1.0700511741341028,-2.0719992691506905,1.0972395467264033,-0.15627627371430872,8.9,0.6864138353072459
2,approach,-0.33225501367040206,-3.0966776439091137,1.06620860745351,-2.082156147633431,1.128655473262313,-0.1568163527621052,9.0,0.6864138353072459
2,approach,-0.35381120015552686,-3.1136793131853677,1.062366040772917,-2.0923130261161713,1.1600713997982226,-0.15735643180990172,9.1,0.6864138353072459
2,approach,-0.37536738664065217,-3.130680982461622,1.0585234740923242,-2.1024699045989115,1.191487326334133,-0.1578965108576982,9.2,0.6864138353072459
2,approach,-0.39692357312577725,-3.1476826517378758,1.0546809074117311,-2.112626783081652,1.222903252870043,-0.1584365899054947,9.3,0.6864138353072459
2,approach,-0.4184797596109021,-3.1646843210141298,1.0508383407311384,-2.1227836615643922,1.2543191794059527,-0.1589766689532912,9.4,0.6864138353072459
2,approach,-0.4400359460960272,-3.1816859902903842,1.0469957740505456,-2.132940540047133,1.285735105941863,-0.1595167480010877,9.5,0.6864138353072459
2,approach,-0.4603611687788986,-3.197716780999068,1.0433726367432705,-2.142517411033428,1.3153570292385333,-0.1600259858906556,9.6,0.6864138353072459
2,approach,-0.4772957137703049,-3.2110732962382738,1.0403539154875474,-2.1504966570729307,1.3400373882499106,-0.16045027211308815,9.7,0.6864138353072459
2,approach,-0.49079948512839583,-3.2217239117713525,1.0379467577132002,-2.156859385695523,1.3597177472612902,-0.16078860208540363,9.8,0.6864138353072459
2,approach,-0.5008724828531702,-3.229668627598303,1.0361511634202294,-2.1616055969012042,1.3743981062726705,-0.16104097580760196,9.9,0.6864138353072459
2,approach,-0.5075147069446271,-3.234907443719125,1.034967132608635,-2.1647352906899737,1.38407846528405,-0.16120739327968314,10.0,0.6864138353072459
2,approach,-0.5107261574027668,-3.2374403601338186,1.034394665278417,-2.166248467061832,1.3887588242954296,-0.16128785450164718,10.1,0.6864138353072459
2,approach,-0.5110523529869968,-3.2376976352063958,1.0343365182455833,-2.1664021644198,1.3892342208372799,-0.1612960271624584,10.14360718,0.6864138353072459
2,center,-0.5110523529869968,-3.2376976352063958,1.0343365182455833,-2.1664021644198,1.3892342208372799,-0.1612960271624584,10.14360718,0.6864138353072459
2,center,-0.5119001136356424,-3.2507405615253155,1.0591047845339958,-2.1564707432684083,1.3924410406561938,-0.18612611860102832,10.24360718,0.6864138353072459
2,center,-0.5140702367527467,-3.2695559837620713,1.0796009333722238,-2.1389962714149022,1.3961183965757924,-0.2091728393593205,10.34360718,0.6864138353072459
2,center,-0.5215944558660871,-3.31250013316579,1.0721004469188298,-2.0873306320742824,1.3989375519530225,-0.21625500932783165,10.44360718,0.6864138353072459
2,center,-0.534508175289256,-3.37991344673752,1.0398731628203752,-1.985643117186693,1.403795629768361,-0.22839392971570333,10.54360718,0.6864138353072459
2,center,-0.5471563660236214,-3.4349584507299142,0.9794119976371184,-1.8681917970944102,1.4085771989209457,-0.2402639427702339,10.64360718,0.6864138353072459
2,center,-0.5537232567256605,-3.45750618262324,0.9338552729054346,-1.7991007302582873,1.4110686574810447,-0.24641943774469308,10.74360718,0.6864138353072459
2,center,-0.5554743414250919,-3.4626964802661058,0.919878198755346,-1.7796728132255741,1.4117339647624958,-0.24806003173506228,10.831760584,0.6864138353072459
3,approach,1.5400809756241274,-1.6199397577352357,1.3999678228092844,-1.199945876570465,-1.6000818166478072,-0.10990594776300713,0.0,0.6470130043607547
3,approach,1.5381665146289143,-1.620622624139673,1.3974678228092845,-1.2002451276270967,-1.6004866111162388,-0.10817668712981064,0.1,0.6470130043607547
3,approach,1.5324231316432753,-1.6226712233529847,1.3899678228092844,-1.2011428807969917,-1.6017009945215337,-0.10298890523022115,0.2,0.6470130043607547
3,approach,1.52285082666721,-1.6260855553751707,1.3774678228092845,-1.2026391360801503,-1.6037249668636915,-0.0943426020642387,0.30000000000000004,0.6470130043607547
3,approach,1.509449599700719,-1.6308656202062317,1.3599678228092846,-1.2047338934765726,-1.6065585281427128,-0.08223777763186327,0.4,0.6470130043607547
3,approach,1.4922194507438016,-1.6370114178461668,1.3374678228092847,-1.207427152986258,-1.6102016783585973,-0.06667443193309484,0.5,0.6470130043607547
3,approach,1.4711603797964583,-1.6445229482949764,1.3099678228092848,-1.2107189146092068,-1.6146544175113449,-0.04765256496793341,0.6000000000000001,0.6470130043607547
3,approach,1.4472561231224008,-1.6530493240459445,1.2787524353793136,-1.2144554096778417,-1.6197087439759854,-0.026060748714882887,0.7000000000000001,0.6470130043607547
3,approach,1.4231982967298191,-1.6616304763641978,1.2473365088434158,-1.2182159093622145,-1.6247955412889392,-0.004330218709314456,0.8,0.6470130043607547
3,approach,1.3991404703372368,-1.670211628682451,1.2159205823075174,-1.2219764090465874,-1.6298823386018935,0.017400311296254585,0.9,0.6470130043607547
3,approach,1.3750826439446535,-1.6787927810007048,1.184504655771618,-1.2257369087309604,-1.6349691359148477,0.03913084130182433,1.0,0.6470130043607547
3,approach,1.351024817552073,-1.6873739333189577,1.1530887292357217,-1.229497408415333,-1.6400559332278013,0.06086137130739168,1.1,0.6470130043607547
3,approach,1.3269669911594923,-1.6959550856372105,1.1216728026998257,-1.2332579080997055,-1.645142730540755,0.082591901312959,1.2,0.6470130043607547
3,approach,1.302909164766912,-1.7045362379554634,1.09025687616393,-1.2370184077840782,-1.650229527853709,0.10432243131852631,1.3,0.6470130043607547
3,approach,1.2788513383743314,-1.713117390273716,1.0588409496280338,-1.2407789074684508,-1.6553163251666627,0.12605296132409363,1.4,0.6470130043607547
3,approach,1.2547935119817508,-1.7216985425919689,1.0274250230921378,-1.2445394071528233,-1.6604031224796163,0.14778349132966095,1.5,0.6470130043607547
3,approach,1.2307356855891705,-1.7302796949102217,0.9960090965562417,-1.2482999068371958,-1.6654899197925699,0.1695140213352283,1.6,0.6470130043607547
3,approach,1.2066778591965897,-1.7388608472284746,0.9645931700203456,-1.2520604065215684,-1.6705767171055237,0.19124455134079565,1.7000000000000002,0.6470130043607547
3,approach,1.1826200328040093,-1.7474419995467272,0.9331772434844496,-1.255820906205941,-1.6756635144184773,0.21297508134636298,1.8,0.6470130043607547
3,approach,1.1585622064114287,-1.7560231518649803,0.9017613169485537,-1.2595814058903136,-1.680750311731431,0.23470561135193033,1.9,0.6470130043607547
3,approach,1.1345043800188481,-1.764604304183233,0.8703453904126577,-1.2633419055746862,-1.6858371090443849,0.25643614135749765,2.0,0.6470130043607547
3,approach,1.1104465536262622,-1.7731854565014877,0.8389294638767546,-1.2671024052590596,-1.6909239063573394,0.2781666713630698,2.1,0.6470130043607547
3,approach,1.0863887272336763,-1.7817666088197424,0.8075135373408517,-1.270862904943433,-1.6960107036702943,0.2998972013686419,2.2,0.6470130043607547
3,approach,1.0623309008410904,-1.7903477611379972,0.7760976108049487,-1.2746234046278062,-1.7010975009832492,0.3216277313742141,2.3,0.6470130043607547
3,approach,1.0382730744485047,-1.7989289134562518,0.7446816842690457,-1.2783839043121799,-1.706184298296204,0.34335826137978626,2.4,0.6470130043607547
3,approach,1.014215248055919,-1.8075100657745065,0.7132657577331428,-1.282144403996553,-1.7112710956091588,0.36508879138535827,2.5,0.6470130043607547
3,approach,0.9901574216633331,-1.8160912180927613,0.6818498311972399,-1.2859049036809265,-1.7163578929221135,0.38681932139093045,2.6,0.6470130043607547
3,approach,0.9660995952707471,-1.824672370411016,0.6504339046613368,-1.2896654033653,-1.7214446902350684,0.4085498513965026,2.7,0.6470130043607547
3,approach,0.9420417688781613,-1.8332535227292708,0.6190179781254338,-1.2934259030496733,-1.726531487548023,0.43028038140207475,2.8,0.6470130043607547
3,approach,0.9179839424855754,-1.8418346750475252,0.5876020515895308,-1.2971864027340467,-1.731618284860978,0.4520109114076469,2.9,0.6470130043607547
3,approach,0.8939261160929894,-1.85041582736578,0.5561861250536277,-1.3009469024184204,-1.7367050821739327,0.4737414414132191,3.0,0.6470130043607547
3,approach,0.8698682897004038,-1.8589969796840347,0.5247701985177249,-1.3047074021027936,-1.7417918794868879,0.4954719714187912,3.1,0.6470130043607547
3,approach,0.8458104633078178,-1.8675781320022895,0.49335427198182186,-1.308467901787167,-1.7468786767998425,0.5172025014243633,3.2,0.6470130043607547
3,approach,0.8217526369152319,-1.8761592843205441,0.46193834544591883,-1.3122284014715404,-1.7519654741127975,0.5389330314299354,3.3,0.6470130043607547
3,approach,0.797694810522646,-1.8847404366387988,0.4305224189100158,-1.3159889011559138,-1.7570522714257522,0.5606635614355077,3.4,0.6470130043607547
3,approach,0.7736369841300602,-1.8933215889570536,0.39910649237411294,-1.3197494008402872,-1.762139068738707,0.5823940914410797,3.5,0.6470130043607547
3,approach,0.7495791577374744,-1.9019027412753082,0.36769056583820986,-1.3235099005246604,-1.767225866051662,0.6041246214466518,3.6,0.6470130043607547
3,approach,0.7255213313448885,-1.9104838935935629,0.33627463930230683,-1.3272704002090339,-1.7723126633646167,0.625855151452224,3.7,0.6470130043607547
3,approach,0.7014635049523026,-1.9190650459118177,0.3048587127664038,-1.3310308998934073,-1.7773994606775716,0.6475856814577962,3.8,0.6470130043607547
3,approach,0.6774056785597168,-1.9276461982300723,0.27344278623050083,-1.3347913995777807,-1.7824862579905263,0.6693162114633683,3.9,0.6470130043607547
3,approach,0.6533478521671311,-1.936227350548327,0.24202685969459808,-1.3385518992621541,-1.7875730553034812,0.6910467414689403,4.0,0.6470130043607547
3,approach,0.6292900257745557,-1.9448085028665778,0.21061093315870874,-1.342312398946526,-1.7926598526164337,0.7127772714745031,4.1,0.6470130043607547
3,approach,0.6052321993819806,-1.9533896551848287,0.17919500662281973,-1.3460728986308976,-1.7977466499293862,0.7345078014800656,4.2,0.6470130043607547
3,approach,0.5811743729894054,-1.9619708075030795,0.14777908008693083,-1.3498333983152695,-1.8028334472423388,0.7562383314856278,4.3,0.6470130043607547
3,approach,0.5571165465968302,-1.9705519598213304,0.11636315355104157,-1.3535938979996411,-1.8079202445552913,0.7779688614911905,4.4,0.6470130043607547
3,approach,0.5330587202042552,-1.9791331121395814,0.0849472270151527,-1.357354397684013,-1.813007041868244,0.799699391496753,4.5,0.6470130043607547
3,approach,0.5090008938116798,-1.9877142644578323,0.053531300479263355,-1.3611148973683846,-1.8180938391811965,0.8214299215023156,4.6,0.6470130043607547
3,approach,0.48494306741909726,-1.9962954167760858,0.02211537394336485,-1.3648753970527574,-1.8231806364941505,0.8431604515078847,4.7,0.6470130043607547
3,approach,0.46088524102651224,-2.0048765690943404,-0.009300552592537127,-1.3686358967371308,-1.8282674338071052,0.864890981513456,4.8,0.6470130043607547
3,approach,0.4368274146339273,-2.0134577214125944,-0.040716479128438794,-1.372396396421504,-1.83335423112006,0.8866215115190273,4.9,0.6470130043607547
3,approach,0.41276958824134224,-2.022038873730849,-0.07213240566434077,-1.3761568961058774,-1.8384410284330146,0.9083520415245987,5.0,0.6470130043607547
3,approach,0.3887117618487572,-2.030620026049103,-0.10354833220024272,-1.3799173957902506,-1.843527825745969,0.9300825715301702,5.1,0.6470130043607547
3,approach,0.36465393545617214,-2.039201178367358,-0.13496425873614468,-1.3836778954746238,-1.848614623058924,0.9518131015357416,5.2,0.6470130043607547
3,approach,0.3405961090635871,-2.0477823306856124,-0.16638018527204665,-1.3874383951589973,-1.8537014203718787,0.9735436315413131,5.3,0.6470130043607547
3,approach,0.316538282671002,-2.056363483003867,-0.19779611180794862,-1.3911988948433704,-1.8587882176848332,0.9952741615468844,5.4,0.6470130043607547
3,approach,0.2924804562784172,-2.064944635322121,-0.22921203834385026,-1.3949593945277436,-1.8638750149977878,1.0170046915524558,5.5,0.6470130043607547
3,approach,0.2684226298858321,-2.073525787640375,-0.2606279648797522,-1.398719894212117,-1.8689618123107425,1.0387352215580272,5.6,0.6470130043607547
3,approach,0.24436480349324702,-2.0821069399586296,-0.2920438914156542,-1.4024803938964903,-1.8740486096236972,1.0604657515635987,5.7,0.6470130043607547
3,approach,0.22030697710066188,-2.090688092276884,-0.3234598179515562,-1.4062408935808635,-1.8791354069366517,1.0821962815691701,5.8,0.6470130043607547
3,approach,0.1962491507080768,-2.0992692445951384,-0.3548757444874582,-1.4100013932652369,-1.8842222042496064,1.1039268115747416,5.9,0.6470130043607547
3,approach,0.17219132431549194,-2.107850396913393,-0.3862916710233599,-1.41376189294961,-1.889309001562561,1.1256573415803126,6.0,0.6470130043607547
3,approach,0.14813349792290667,-2.1164315492316477,-0.4177075975592621,-1.4175223926339835,-1.8943957988755158,1.1473878715858843,6.1,0.6470130043607547
3,approach,0.12407567153032181,-2.125012701549902,-0.44912352409516376,-1.4212828923183567,-1.8994825961884703,1.1691184015914557,6.2,0.6470130043607547
3,approach,0.10001784513773673,-2.133593853868156,-0.4805394506310658,-1.42504339200273,-1.904569393501425,1.190848931597027,6.3,0.6470130043607547
3,approach,0.07596001874515165,-2.142175006186411,-0.5119553771669677,-1.4288038916871033,-1.9096561908143799,1.2125794616025984,6.4,0.6470130043607547
3,approach,0.051902192352566816,-2.150756158504665,-0.5433713037028693,-1.4325643913714765,-1.9147429881273341,1.2343099916081697,6.5,0.6470130043607547
3,approach,0.027844365959981517,-2.1593373108229197,-0.5747872302387717,-1.4363248910558497,-1.919829785440289,1.2560405216137414,6.6,0.6470130043607547
3,approach,0.003786539567396681,-2.167918463141174,-0.6062031567746733,-1.4400853907402231,-1.9249165827532437,1.2777710516193128,6.7,0.6470130043607547
3,approach,-0.020271286825188608,-2.176499615459428,-0.6376190833105755,-1.4438458904245963,-1.9300033800661982,1.2995015816248843,6.8,0.6470130043607547
3,approach,-0.044329113217773455,-2.185080767777683,-0.6690350098464771,-1.4476063901089695,-1.935090177379153,1.3212321116304555,6.9,0.6470130043607547
3,approach,-0.06838693961035829,-2.193661920095937,-0.7004509363823789,-1.451366889793343,-1.9401769746921074,1.3429626416360267,7.0,0.6470130043607547
3,approach,-0.09244476600294366,-2.2022430724141913,-0.7318668629182812,-1.4551273894777161,-1.945263772005062,1.3646931716415984,7.1,0.6470130043607547
3,approach,-0.1165025923955285,-2.2108242247324457,-0.7632827894541829,-1.4588878891620893,-1.9503505693180168,1.3864237016471697,7.2,0.6470130043607547
3,approach,-0.14056041878811382,-2.2194053770507005,-0.7946987159900851,-1.4626483888464628,-1.9554373666309715,1.4081542316527413,7.3,0.6470130043607547
3,approach,-0.16461824518069867,-2.2279865293689545,-0.8261146425259869,-1.466408888530836,-1.9605241639439261,1.4298847616583126,7.4,0.6470130043607547
3,approach,-0.18867607157328375,-2.2365676816872093,-0.8575305690618888,-1.4701693882152091,-1.9656109612568808,1.451615291663884,7.5,0.6470130043607547
3,approach,-0.21273389796586883,-2.2451488340054633,-0.8889464955977908,-1.4739298878995823,-1.9706977585698355,1.4733458216694555,7.6,0.6470130043607547
3,approach,-0.23679172435845366,-2.253729986323718,-0.9203624221336925,-1.4776903875839558,-1.9757845558827902,1.4950763516750267,7.7,0.6470130043607547
3,approach,-0.26084955075103894,-2.262311138641972,-0.9517783486695947,-1.481450887268329,-1.9808713531957447,1.5168068816805982,7.8,0.6470130043607547
3,approach,-0.2849073771436238,-2.270892290960227,-0.9831942752054964,-1.4852113869527024,-1.9859581505086996,1.5385374116861696,7.9,0.6470130043607547
3,approach,-0.3089652035362089,-2.2794734432784813,-1.0146102017413985,-1.4889718866370756,-1.991044947821654,1.5602679416917409,8.0,0.6470130043607547
3,approach,-0.33302302992879373,-2.2880545955967357,-1.0460261282773,-1.4927323863214488,-1.9961317451346088,1.5819984716973121,8.1,0.6470130043607547
3,approach,-0.35708085632137926,-2.29663574791499,-1.0774420548132027,-1.4964928860058222,-2.0012185424475635,1.6037290017028838,8.2,0.6470130043607547
3,approach,-0.3811386827139641,-2.3052169002332445,-1.1088579813491044,-1.5002533856901954,-2.006305339760518,1.6254595317084553,8.3,0.6470130043607547
3,approach,-0.40519650910654886,-2.313798052551499,-1.140273907885006,-1.5040138853745686,-2.011392137073473,1.6471900617140265,8.4,0.6470130043607547
3,approach,-0.42925433549913367,-2.3223792048697534,-1.1716898344209075,-1.507774385058942,-2.0164789343864276,1.6689205917195977,8.5,0.6470130043607547
3,approach,-0.45331216189171875,-2.3309603571880078,-1.2031057609568094,-1.5115348847433152,-2.021565731699382,1.6906511217251687,8.6,0.6470130043607547
3,approach,-0.47736998828430405,-2.339541509506262,-1.2345216874927118,-1.5152953844276886,-2.026652529012337,1.7123816517307406,8.7,0.6470130043607547
3,approach,-0.5014278146768889,-2.3481226618245166,-1.2659376140286134,-1.5190558841120618,-2.031739326325291,1.7341121817363119,8.8,0.6470130043607547
3,approach,-0.525485641069474,-2.356703814142771,-1.2973535405645154,-1.522816383796435,-2.036826123638246,1.7558427117418833,8.9,0.6470130043607547
3,approach,-0.5495434674620469,-2.3652849664610214,-1.3287694671004013,-1.5265768834808064,-2.0419129209511984,1.7775732417474437,9.0,0.6470130043607547
3,approach,-0.5736012938546121,-2.3738661187792687,-1.3601853936362773,-1.5303373831651765,-2.0469997182641486,1.7993037717529972,9.1,0.6470130043607547
3,approach,-0.5976591202471778,-2.382447271097516,-1.391601320172154,-1.5340978828495468,-2.052086515577099,1.821034301758551,9.2,0.6470130043607547
3,approach,-0.6217169466397426,-2.3910284234157633,-1.4230172467080295,-1.5378583825339172,-2.0571733128900496,1.8427648317641043,9.3,0.6470130043607547
3,approach,-0.6457747730323079,-2.3996095757340106,-1.4544331732439058,-1.5416188822182872,-2.062260110203,1.8644953617696578,9.4,0.6470130043607547
3,approach,-0.6698325994248732,-2.408190728052258,-1.4858490997797817,-1.5453793819026573,-2.0673469075159505,1.8862258917752113,9.5,0.6470130043607547
3,approach,-0.6938904258174388,-2.416771880370505,-1.5172650263156584,-1.5491398815870276,-2.0724337048289008,1.9079564217807654,9.6,0.6470130043607547
3,approach,-0.7179482522100041,-2.4253530326887525,-1.5486809528515346,-1.552900381271398,-2.0775205021418515,1.9296869517863189,9.7,0.6470130043607547
3,approach,-0.7420060786025695,-2.433934185007,-1.5800968793874108,-1.556660880955768,-2.0826072994548017,1.9514174817918726,9.8,0.6470130043607547
3,approach,-0.7660639049951348,-2.4425153373252475,-1.6115128059232868,-1.5604213806401384,-2.0876940967677524,1.973148011797426,9.9,0.6470130043607547
3,approach,-0.7901217313877,-2.451096489643495,-1.6429287324591628,-1.5641818803245084,-2.0927808940807027,1.9948785418029797,10.0,0.6470130043607547
3,approach,-0.8141795577802659,-2.459677641961742,-1.6743446589950397,-1.5679423800088785,-2.0978676913936534,2.0166090718085337,10.1,0.6470130043607547
3,approach,-0.8375240600439515,-2.468004359697982,-1.704829090803858,-1.5715913793807212,-2.102803663141449,2.0376952829494748,10.2,0.6470130043607547
3,approach,-0.8573302209560137,-2.4750689914254207,-1.7306929775082434,-1.5746872975506776,-2.10699148644948,2.055585443389214,10.3,0.6470130043607547
3,approach,-0.8733074598776507,-2.480767890343985,-1.75155686421263,-1.5771847136073702,-2.110369720820648,2.070017082562561,10.4,0.6470130043607547
3,approach,-0.8854557768088637,-2.4851010564536757,-1.7674207509170194,-1.5790836275508002,-2.112938366254953,2.0809902004695173,10.5,0.6470130043607547
3,approach,-0.89377517174965,-2.4880684897544914,-1.7782846376214083,-1.5803840393809663,-2.1146974227523945,2.0885047971100796,10.6,0.6470130043607547
3,approach,-0.8982656447000102,-2.4896701902464327,-1.7841485243257968,-1.5810859490978693,-2.115646890312973,2.092560872484249,10.7,0.6470130043607547
3,approach,-0.8991321859366372,-2.489979275623482,-1.7852800977017937,-1.5812213989092385,-2.115830112170264,2.093343586601323,10.767277734,0.6470130043607547
3,center,-0.8991321859366372,-2.489979275623482,-1.7852800977017937,-1.5812213989092385,-2.115830112170264,2.093343586601323,10.767277734,0.6470130043607547
3,center,-0.9055126454838883,-2.4864117103801706,-1.7751437996795176,-1.6035090230288227,-2.1408044410368583,2.0893217793447247,10.867277734,0.6470130043607547
3,center,-0.9089463330905816,-2.4828246172663904,-1.7586273975337243,-1.6335266352799873,-2.163775868347559,2.0833337850311153,10.967277734,0.6470130043607547
3,center,-0.8902284070508595,-2.483213381480443,-1.7218739217969072,-1.6750303269555211,-2.1470317164950496,2.074301268999379,11.067277734,0.6470130043607547
3,center,-0.852560010393571,-2.48955966132534,-1.6368874069313795,-1.7628142283975563,-2.1123140067108963,2.0570612398185553,11.167277734,0.6470130043607547
3,center,-0.8060697741059084,-2.510807840523777,-1.5028978854314103,-1.8856515500509328,-2.0692934493069153,2.0367498679172353,11.267277734,0.6470130043607547
3,center,-0.7729113040351001,-2.5390875068546785,-1.3795764107644515,-1.987156132473787,-2.0385072423348998,2.022840370660438,11.367277734,0.6470130043607547
3,center,-0.7563387663118338,-2.5589958500001218,-1.3058924286806528,-2.0439462218634814,-2.0230915633759197,2.0160511285434874,11.467277734,0.6470130043607547
3,center,-0.7514014026937221,-2.565771002659784,-1.2821877579694512,-2.06174916224783,-2.0184956381573196,2.014046654838829,11.564652947999999,0.6470130043607547
4,approach,1.5400809756241274,-1.6199397577352357,1.3999678228092844,-1.199945876570465,-1.6000818166478072,-0.10990594776300713,0.0,0.5058014598739103
4,approach,1.5405874873678589,-1.6192347982339093,1.3999729449221767,-1.201012334390904,-1.5975818166478073,-0.10749630148362598,0.1,0.5058014598739103
4,approach,1.5421070225990534,-1.61711991972993,1.3999883112608533,-1.204211707852221,-1.5900818166478075,-0.10026736264548249,0.2,0.5058014598739103
4,approach,1.5446395813177105,-1.6135951222232974,1.4000139218253145,-1.2095439969544162,-1.5775818166478073,-0.08821913124857665,0.30000000000000004,0.5058014598739103
4,approach,1.5481851635238308,-1.6086604057140121,1.40004977661556,-1.2170092016974892,-1.5600818166478072,-0.0713516072929085,0.4,0.5058014598739103
4,approach,1.5527437692174142,-1.6023157702020738,1.40009587563159,-1.2266073220814406,-1.5375818166478075,-0.04966479077847805,0.5,0.5058014598739103
